!!!COM: Beethoven, Ludwig van
!!!CDT: 1770///-1827///
!!!OTL: Rondo a capriccio (Rage over a Lost Penny)
!!!OPS: Op. 129
!!!ODT: 1795
!!!PDT: 1828
!!!OMD: Allegro vivace
**kern	**kern	**dynam
*staff2	*staff1	*staff1/2
*Ipiano	*Ipiano	*Ipiano
*>[A,B,B1,B,B2,C,C1,C,C2,D,E,E1,E,E2,F,F,G]	*>[A,B,B1,B,B2,C,C1,C,C2,D,E,E1,E,E2,F,F,G]	*>[A,B,B1,B,B2,C,C1,C,C2,D,E,E1,E,E2,F,F,G]
*>norep[A,B,B2,C,C2,D,E,E2,F,G]	*>norep[A,B,B2,C,C2,D,E,E2,F,G]	*>norep[A,B,B2,C,C2,D,E,E2,F,G]
*>A	*>A	*>A
*clefF4	*clefG2	*clefG2
*k[f#]	*k[f#]	*k[f#]
*G:	*G:	*G:
*M2/4	*M2/4	*M2/4
*MM132	*MM132	*MM132
=1-	=1-	=1-
8G\ 8B\ 8d\L	(4b\	p
8G\ 8B\ 8d\	.	.
8G\ 8B\ 8d\	8dd'\L)	.
8G\ 8B\ 8d\J	8dd'\J	.
=2	=2	=2
8G\ 8B\ 8d\L	8gg'\L	.
8G\ 8B\ 8d\	8gg'\J	.
8G\ 8B\ 8d\	(4bb^\	.
8G\ 8B\ 8d\J	.	.
=3	=3	=3
8G\ 8c\ 8d\ 8f#\L	16ddd\LL	.
.	16ccc\	.
8G\ 8c\ 8d\ 8f#\	16ddd\	.
.	16ccc\JJ	.
8G\ 8c\ 8d\ 8f#\	8aa'\)	.
8G\ 8c\ 8d\ 8f#\J	8r	.
=4	=4	=4
8G\ 8c\ 8d\ 8f#\L	(16ddd\LL	.
.	16ccc\	.
8G\ 8c\ 8d\ 8f#\	16ddd\	.
.	16ccc\JJ	.
8G\ 8c\ 8d\ 8f#\	8aa'\)	.
8G\ 8c\ 8d\ 8f#\J	8r	.
=5	=5	=5
8G\ 8B\ 8d\L	(4b\	.
8G\ 8B\ 8d\	.	.
8G\ 8B\ 8d\	8dd'\L)	.
8G\ 8B\ 8d\J	8dd'\J	.
=6	=6	=6
8G\ 8B\ 8d\L	8gg'\L	.
8G\ 8B\ 8d\	8gg'\J	.
8G\ 8B\ 8d\	(4bb^\	.
8G\ 8B\ 8d\J	.	.
=7	=7	=7
8G\ 8c\ 8d\ 8f#\L	16ddd\LL	.
.	16ccc\	.
8G\ 8c\ 8d\ 8f#\	16ddd\	.
.	16ccc\JJ	.
8G\ 8c\ 8d\ 8f#\	8aa'\L)	.
8G\ 8c\ 8d\ 8f#\J	(16aa\L	.
.	16bb\JJ	.
=8	=8	=8
8G\ 8B\ 8d\ 8g\L	4gg'\)	.
8G\ 8B\	.	.
8G\ 8B\	4r	.
8G\ 8B\J	.	.
=9	=9	=9
8E\ 8G\ 8B\L	16bb\LL	.
.	16aa\	.
8E\ 8G\ 8B\	16gg\	.
.	16ff#\JJ	.
8E\ 8G\ 8B\	16ee\LL	.
.	16ff#\	.
8E\ 8G\ 8B\J	16gg\	.
.	16aa\JJ	.
=10	=10	=10
8E\ 8G\ 8B\L	8bb'\L	.
8E\ 8G\ 8B\	8bb'\J	.
8E\ 8G\ 8B\	4eee^\	.
8E\ 8G\ 8B\J	.	.
=11	=11	=11
8BB\ 8F#\ 8A\ 8B\L	(16eee\LL	.
.	16ddd#\	.
8BB\ 8F#\ 8A\ 8B\	16eee\	.
.	16ddd#\JJ	.
8BB\ 8F#\ 8A\ 8B\	8bb'\)	.
8BB\ 8F#\ 8A\ 8B\J	8r	.
=12	=12	=12
8BB\ 8F#\ 8A\ 8B\L	(16eee\LL	.
.	16ddd#\	.
8BB\ 8F#\ 8A\ 8B\	16eee\	.
.	16ddd#\JJ	.
8BB\ 8F#\ 8A\ 8B\	8bb'\)	.
8BB\ 8F#\ 8A\ 8B\J	8r	.
=13	=13	=13
8E\ 8G\ 8B\L	16bb\LL	.
.	16aa\	.
8E\ 8G\ 8B\	16gg\	.
.	16ff#\JJ	<
8E\ 8G\ 8B\	16ee\LL	.
.	16ff#\	.
8E\ 8G\ 8B\J	16gg\	.
.	16aa\JJ	.
=14	=14	=14
8E\ 8G\ 8B\L	8bb'\L	.
8E\ 8G\ 8B\	8bb'\J	.
8E\ 8G\ 8B\	4eee^\	.
8E\ 8G\ 8B\J	.	.
=15	=15	=15
8AA\ 8E\ 8G\ 8A\L	2ccc#\	.
8AA\ 8E\ 8G\ 8A\	.	.
8AA\ 8E\ 8G\ 8A\	.	.
8AA\ 8E\ 8G\ 8A\J	.	.
=16	=16	=16
8D\ 8F#\ 8A\L	4ddd\	.
8D\ 8F#\ 8A\	.	.
8D\ 8F#\ 8A\	4dd\	.
8D\ 8F#\ 8A\J	.	.
=17	=17	=17
8GG/ 8BB/ 8D/ 8G/L	4b\	f
8GG/ 8BB/ 8D/ 8G/	.	.
8GG/ 8BB/ 8D/ 8G/	8dd\L	.
8GG/ 8BB/ 8D/ 8G/J	8dd\J	.
=18	=18	=18
8GG/ 8BB/ 8D/ 8G/L	8gg\L	.
8GG/ 8BB/ 8D/ 8G/	8gg\J	.
8GG/ 8BB/ 8D/ 8G/	4bb\	.
8GG/ 8BB/ 8D/ 8G/J	.	.
=19	=19	=19
8GG/ 8C/ 8D/ 8F#/L	16ddd\LL	.
.	16cccn\	.
8GG/ 8C/ 8D/ 8F#/	16ddd\	.
.	16ccc\JJ	.
8GG/ 8C/ 8D/ 8F#/	4aa^\	.
8GG/ 8C/ 8D/ 8F#/J	.	.
=20	=20	=20
8GG/ 8C/ 8D/ 8F#/L	16ddd\LL	.
.	16ccc\	.
8GG/ 8C/ 8D/ 8F#/	16ddd\	.
.	16ccc\JJ	.
8GG/ 8C/ 8D/ 8F#/	4aa^\	.
8GG/ 8C/ 8D/ 8F#/J	.	.
=21	=21	=21
8GG/ 8BB/ 8D/ 8G/L	4b\	.
8GG/ 8BB/ 8D/ 8G/	.	.
8GG/ 8BB/ 8D/ 8G/	8dd\L	.
8GG/ 8BB/ 8D/ 8G/J	8dd\J	.
=22	=22	=22
8GG/ 8BB/ 8D/ 8G/L	8gg\L	.
8GG/ 8BB/ 8D/ 8G/	8gg\J	.
8GG/ 8BB/ 8D/ 8G/	4bb\	.
8GG/ 8BB/ 8D/ 8G/J	.	.
=23	=23	=23
8GG/ 8C/ 8D/ 8F#/L	16ddd\LL	.
.	16ccc\	.
8GG/ 8C/ 8D/ 8F#/	16ddd\	.
.	16ccc\JJ	.
8GG/ 8C/ 8D/ 8F#/	8aa\L	.
8GG/ 8C/ 8D/ 8F#/J	16aa\L	.
.	16bb\JJ	.
=24	=24	=24
4GG/ 4BB/ 4D/ 4G/	4gg\	.
4GG/	4r	.
=25	=25	=25
8EE/ 8GG/ 8BB/ 8E/L	16bb\LL	ff
.	16aa\	.
8EE/ 8GG/ 8BB/ 8E/J	16gg\	.
.	16ff#\JJ	.
8r	16ee\LL	.
.	16ff#\	.
8EE/ 8GG/ 8BB/ 8E/	16gg\	.
.	16ee\JJ	.
=26	=26	=26
8BB\ 8F#\ 8A\L	16dd#\LL	.
.	16ee\	.
8BB\ 8F#\ 8A\J	16ff#\	.
.	16dd#\JJ	.
8r	16b\LL	.
.	16cc#\	.
8BB\ 8F#\ 8A\	16dd#\	.
.	16b\JJ	.
=27	=27	=27
8E\ 8G\L	16g/LL	.
.	16a/	.
8E\ 8G\J	16b/	.
.	16g/JJ	.
8r	16e/LL	.
.	16f#/	.
8E\ 8G\	16g/	.
.	16e/JJ	.
=28	=28	=28
8BB/L	16d#/LL	.
.	16e/	.
8BB/J	16f#/	.
.	16d#/JJ	.
8r	16B/LL	.
.	16c#/	.
8BB/	16d#/	.
.	16B/JJ	.
=29	=29	=29
*^	*	*
16G/LL	8EE\L	2r	.
16A/	.	.	.
16B/	8EE\J	.	.
16G/JJ	.	.	.
16E/LL	8r	.	.
16F#/	.	.	.
16G/	8EE\	.	.
16E/JJ	.	.	.
=30	=30	=30	=30
16C#/LL	8AAA\ 8AA\L	2r	.
16Dn/	.	.	.
16E/	8AAA\ 8AA\J	.	.
16F#/JJ	.	.	.
16G/LL	8r	.	.
16A/	.	.	.
16B/	8AA\	.	.
16c#/JJ	.	.	.
*v	*v	*	*
=31	=31	=31
4D\	16d/LL	.
.	16e/	.
.	16f#/	.
.	16g/JJ	.
4AA\ 4E\ 4G\	16a\LL	.
.	16b\	.
.	16ccn\	.
.	16cc#\JJ	.
=32	=32	=32
4D\ 4F#\	16dd\LL	>
.	16ee\	.
.	16ff#\	.
.	16gg\JJ	.
4r	16aa\LL	.
.	16bb\	.
.	16cccn\	.
.	16aa\JJ	.
=33	=33	=33
8G\ 8B\ 8d\L	4b\ (4bb\	p
8G\ 8B\ 8d\	.	.
8G\ 8B\ 8d\	8dd'\L)	.
8G\ 8B\ 8d\J	8dd'\J	.
=34	=34	=34
8G\ 8B\ 8d\L	8gg'\L	.
8G\ 8B\ 8d\	8gg'\J	.
8G\ 8B\ 8d\	(4bb^\	.
8G\ 8B\ 8d\J	.	.
=35	=35	=35
8G\ 8c\ 8d\ 8f#\L	16ddd\LL	.
.	16ccc\	.
8G\ 8c\ 8d\ 8f#\	16ddd\	.
.	16ccc\JJ	.
8G\ 8c\ 8d\ 8f#\	8aa'\)	.
8G\ 8c\ 8d\ 8f#\J	8r	.
=36	=36	=36
8G\ 8c\ 8d\ 8f#\L	(16ddd\LL	.
.	16ccc\	.
8G\ 8c\ 8d\ 8f#\	16ddd\	.
.	16ccc\JJ	.
8G\ 8c\ 8d\ 8f#\	8aa'\)	.
8G\ 8c\ 8d\ 8f#\J	8r	.
=37	=37	=37
8G\ 8B\ 8d\L	(4b\	.
8G\ 8B\ 8d\	.	.
8G\ 8B\ 8d\	8dd'\L)	.
8G\ 8B\ 8d\J	8dd'\J	.
=38	=38	=38
8G\ 8B\ 8d\L	8gg'\L	.
8G\ 8B\ 8d\	8gg'\J	.
8G\ 8B\ 8d\	(4bb^\	.
8G\ 8B\ 8d\J	.	.
=39	=39	=39
8G\ 8c\ 8d\ 8f#\L	16ddd\LL	.
.	16ccc\	.
8G\ 8c\ 8d\ 8f#\	16ddd\	.
.	16ccc\JJ	.
8G\ 8c\ 8d\ 8f#\	8aa'\L)	.
8G\ 8c\ 8d\ 8f#\J	(16aa\L	.
.	16bb\JJ	.
=40	=40	=40
8G\ 8B\ 8d\ 8g\L	4gg\)	.
8G\ 8B\	.	.
8G\ 8B\	4r	.
8G\ 8B\J	.	.
=41	=41	=41
8E\ 8G\ 8B\L	16bb\LL	.
.	16aa\	.
8E\ 8G\ 8B\	16gg\	.
.	16ff#\JJ	.
8E\ 8G\ 8B\	16ee\LL	.
.	16ff#\	.
8E\ 8G\ 8B\J	16gg\	.
.	16aa\JJ	.
=42	=42	=42
8E\ 8G\ 8B\L	8bb'\L	.
8E\ 8G\ 8B\	8bb'\J	.
8E\ 8G\ 8B\	4eee^\	.
8E\ 8G\ 8B\J	.	.
=43	=43	=43
8BB\ 8F#\ 8A\ 8B\L	(16eee\LL	.
.	16ddd#\	.
8BB\ 8F#\ 8A\ 8B\	16eee\	.
.	16ddd#\JJ	.
8BB\ 8F#\ 8A\ 8B\	8bb'\)	.
8BB\ 8F#\ 8A\ 8B\J	8r	.
=44	=44	=44
8BB\ 8F#\ 8A\ 8B\L	(16eee\LL	.
.	16ddd#\	.
8BB\ 8F#\ 8A\ 8B\	16eee\	.
.	16ddd#\JJ	.
8BB\ 8F#\ 8A\ 8B\	8bb'\)	.
8BB\ 8F#\ 8A\ 8B\J	8r	.
=45	=45	=45
8E\ 8G\ 8B\L	16bb\LL	.
.	16aa\	.
8E\ 8G\ 8B\	16gg\	.
.	16ff#\JJ	<
8E\ 8G\ 8B\	16ee\LL	.
.	16ff#\	.
8E\ 8G\ 8B\J	16gg\	.
.	16aa\JJ	.
=46	=46	=46
8E\ 8G\ 8B\L	8bb'\L	.
8E\ 8G\ 8B\	8bb'\J	.
8E\ 8G\ 8B\	4eee^\	.
8E\ 8G\ 8B\J	.	.
=47	=47	=47
8AA\ 8E\ 8G\ 8A\L	2ccc#\	.
8AA\ 8E\ 8G\ 8A\	.	.
8AA\ 8E\ 8G\ 8A\	.	.
8AA\ 8E\ 8G\ 8A\J	.	.
=48	=48	=48
8D\ 8F#\ 8A\L	4ddd\	.
8D\ 8F#\ 8A\	.	.
8D\ 8F#\ 8A\	4dd\	.
8D\ 8F#\ 8A\J	.	.
=49	=49	=49
8GG/ 8BB/ 8D/ 8G/L	4b\	f
8GG/ 8BB/ 8D/ 8G/	.	.
8GG/ 8BB/ 8D/ 8G/	8dd\L	.
8GG/ 8BB/ 8D/ 8G/J	8dd\J	.
=50	=50	=50
8GG/ 8BB/ 8D/ 8G/L	8gg\L	.
8GG/ 8BB/ 8D/ 8G/	8gg\J	.
8GG/ 8BB/ 8D/ 8G/	4bb\	.
8GG/ 8BB/ 8D/ 8G/J	.	.
=51	=51	=51
8GG/ 8C/ 8D/ 8F#/L	16ddd\LL	.
.	16cccn\	.
8GG/ 8C/ 8D/ 8F#/	16ddd\	.
.	16ccc\JJ	.
8GG/ 8C/ 8D/ 8F#/	8aa\	.
8GG/ 8C/ 8D/ 8F#/J	8r	.
=52	=52	=52
8GG/ 8C/ 8D/ 8F#/L	16ddd\LL	.
.	16ccc\	.
8GG/ 8C/ 8D/ 8F#/	16ddd\	.
.	16ccc\JJ	.
8GG/ 8C/ 8D/ 8F#/	8aa\	.
8GG/ 8C/ 8D/ 8F#/J	8r	.
=53	=53	=53
8GG/ 8BB/ 8D/ 8G/L	4b\	.
8GG/ 8BB/ 8D/ 8G/	.	.
8GG/ 8BB/ 8D/ 8G/	8dd\L	.
8GG/ 8BB/ 8D/ 8G/J	8dd\J	.
=54	=54	=54
8GG/ 8BB/ 8D/ 8G/L	8gg\L	.
8GG/ 8BB/ 8D/ 8G/	8gg\J	.
8GG/ 8BB/ 8D/ 8G/	4bb\	.
8GG/ 8BB/ 8D/ 8G/J	.	.
=55	=55	=55
8GG/ 8C/ 8D/ 8F#/L	16ddd\LL	.
.	16ccc\	.
8GG/ 8C/ 8D/ 8F#/	16ddd\	.
.	16ccc\JJ	.
8GG/ 8C/ 8D/ 8F#/	8aa\L	.
8GG/ 8C/ 8D/ 8F#/J	16aa\L	.
.	16bb\JJ	.
=56	=56	=56
4GG/ 4BB/ 4D/ 4G/	4gg\	.
4GG/	8r	.
.	8dd\	.
=57!|:	=57!|:	=57!|:
*>B	*>B	*>B
*k[b-e-]	*k[b-e-]	*k[b-e-]
8GG/ 8BB-/ 8D/ 8G/L	16bb-\LL	f
.	16ddd\	.
8GG/ 8BB-/ 8D/ 8G/J	16gg\	.
.	16bb-\JJ	.
8r	16dd\LL	.
.	16gg\	.
8GG/ 8BB-/ 8D/ 8G/	16b-\	.
.	16dd\JJ	.
=58	=58	=58
8C\ 8E-\ 8G\L	16ee-\LL	.
.	16gg\	.
8C\ 8E-\ 8G\J	16cc\	.
.	16ee-\JJ	.
8r	16g/LL	.
.	16cc/	.
8C\ 8E-\ 8G\	16e-/	.
.	16g/JJ	.
=59	=59	=59
8FF/ 8AA/ 8C/ 8F/L	16aa\LL	.
.	16ccc\	.
8FF/ 8AA/ 8C/ 8F/J	16ff\	.
.	16aa\JJ	.
8r	16cc\LL	.
.	16ff\	.
8FF/ 8AA/ 8C/ 8F/	16a\	.
.	16cc\JJ	.
=60	=60	=60
8BB-\ 8D\ 8F\L	16dd\LL	.
.	16ff\	.
8BB-\ 8D\ 8F\J	16b-\	.
.	16dd\JJ	.
8r	16f/LL	.
.	16b-/	.
8BB-\ 8D\ 8F\	16d/	.
.	16f/JJ	.
=61	=61	=61
8DD/ 8D/L	16fff\LL	.
.	16ddd\	.
8DD/ 8D/J	16bb-\	.
.	16ddd\JJ	.
8r	16ff\LL	.
.	16bb-\	.
8DD/ 8D/	16dd\	.
.	16ff\JJ	.
=62	=62	=62
8EE-/ 8E-/L	16cc\LL	.
.	16ee-\	.
8EE-/ 8E-/J	16g\	.
.	16cc\JJ	.
8r	16e-/LL	.
.	16g/	.
8EE-/ 8E-/	16c/	.
.	16e-/JJ	.
=63	=63	=63
8FF/ 8F/	16d/LL	.
.	16f/	.
8r	16B-/	.
.	16d/JJ	.
8FF/	16c/LL	.
.	16e-/	.
8r	16A/	.
.	16c/JJ	.
=64	=64	=64
*>B1	*>B1	*>B1
16r	4B-/	.
16BB-/LL	.	.
16D/	.	.
16C/JJ	.	.
16BB-/LL	8r	.
16C/	.	.
16BB-/	8dd\	.
16AA/JJ	.	.
=65:|!	=65:|!	=65:|!
*>B2	*>B2	*>B2
16r	4B-/	.
16BB-\LL	.	.
16D\	.	.
16F\JJ	.	.
8B-\	8r	.
8r	8ff\	.
=66!|:	=66!|:	=66!|:
*>C	*>C	*>C
4.BB-\ 4.B-\	16fff\LL	f
.	16ddd\	.
.	16bb-\	.
.	16ddd\JJ	.
.	16ff\LL	.
.	16bb-\	.
8AA-\ 8A-\	16dd\	.
.	16ff\JJ	.
=67	=67	=67
4GG/ 4G/	16bn/LL	.
.	16dd/	.
.	16f/	.
.	16b/JJ	.
8r	16d/LL	.
.	16f/	.
8GG/ 8G/	16Bn/	.
.	16d/JJ	.
=68	=68	=68
4C\ 4c\	16eee-\LL	.
.	16ccc\	.
.	16gg\	.
.	16ccc\JJ	.
8r	16ee-\LL	.
.	16gg\	.
8BB-\ 8B-\	16dd\	.
.	16gg\JJ	.
=69	=69	=69
4AAn\ 4An\	16cc#\LL	.
.	16een\	.
.	16g\	.
.	16cc#\JJ	.
8r	16en/LL	.
.	16g/	.
8AAA/ 8AA/	16c#/	.
.	16e/JJ	.
=70	=70	=70
4.DD/ 4.D/	16d/LL	.
.	16f#/	.
.	16a/	.
.	16f#/JJ	.
.	16dd\LL	.
.	16a\	.
8CCn/ 8Cn/	16ff#\	.
.	16dd\JJ	.
=71	=71	=71
8BBB-/ 8BB-/L	16gg\LL	.
.	16dd\	.
8BBB-/ 8BB-/J	16b-\	.
.	16dd\JJ	.
8r	16g/LL	.
.	16b-/	.
8BBB-/ 8BB-/	16d/	.
.	16g/JJ	.
=72	=72	=72
4CC/ 4C/	16e-/LL	.
.	16g/	.
.	16c/	.
.	16e-/JJ	.
4DD/ 4D/	16A/LL	.
.	16c/	.
.	16F#/	.
.	16A/JJ	.
=73	=73	=73
*>C1	*>C1	*>C1
16r	4G/	.
16GGG/LL	.	.
16BBB-/	.	.
16DD/JJ	.	.
8GG/	8r	.
8r	8ffn\	.
=74:|!	=74:|!	=74:|!
*>C2	*>C2	*>C2
4GGG/ 4GG/	16G/LL	.
.	16d/	.
.	16B-/	.
.	16d/JJ	.
16r	8G/	.
16BBB-/LL	.	.
16CC/	8r	.
16DD/JJ	.	.
=75	=75	=75
*>D	*>D	*>D
(4EE-/	8G/ 8B-/L	p
.	8G/ 8B-/	.
8GG'/L)	8G/ 8B-/	.
8GG'/J	8G/ 8B-/J	.
=76	=76	=76
8BB-'/L	8G/ 8B-/L	.
8BB-'/J	8G/ 8B-/	.
4E-^\	8G/ 8B-/	.
.	8G/ 8B-/J	.
=77	=77	=77
(16E-\LL	8A-/ 8B-/L	.
16D\	.	.
16E-\	8A-/ 8B-/	.
16D\JJ	.	.
4BB-/)	8A-/ 8B-/	.
.	8A-/ 8B-/J	.
=78	=78	=78
(16E-\LL	8A-/ 8B-/L	.
16D\	.	.
16E-\	8A-/ 8B-/	.
16D\JJ	.	.
4BB-/)	8A-/ 8B-/	.
.	8A-/ 8B-/J	.
=79	=79	=79
8E-\ 8G\ 8B-\L	(4e-/	.
8E-\ 8G\ 8B-\	.	.
8E-\ 8G\ 8B-\	8g'/L)	.
8E-\ 8G\ 8B-\J	8g'/J	.
=80	=80	=80
8E-\ 8G\ 8B-\L	8b-'\L	.
8E-\ 8G\ 8B-\	8b-'\J	.
8E-\ 8G\ 8B-\	4ee-\	.
8E-\ 8G\ 8B-\J	.	.
=81	=81	=81
8En\ 8G\ 8B-\L	(16dd\LL	<
.	16cc#\	.
8E\ 8G\ 8B-\	16dd\	.
.	16cc#\JJ	.
8E\ 8G\ 8B-\	4gg\)	.
8E\ 8G\ 8B-\J	.	.
=82	=82	=82
8F#\ 8An\ 8d\L	(16dd\LL	.
.	16ccn\	.
8F#\ 8A\ 8d\	16dd\	.
.	16cc\JJ	.
8F#\ 8A\ 8d\	4aan\)	.
8F#\ 8A\ 8d\J	.	.
=83	=83	=83
*k[f#]	*k[f#]	*k[f#]
8G\ 8B\ 8d\L	(4b\	p
8G\ 8B\ 8d\	.	.
8G\ 8B\ 8d\	8dd'\L)	.
8G\ 8B\ 8d\J	8dd'\J	.
=84	=84	=84
8G\ 8B\ 8d\L	8gg'\L	.
8G\ 8B\ 8d\	8gg'\J	.
8G\ 8B\ 8d\	(4bb^\	.
8G\ 8B\ 8d\J	.	.
=85	=85	=85
8G\ 8c\ 8d\ 8f#\L	16ddd\LL	.
.	16ccc\	.
8G\ 8c\ 8d\ 8f#\	16ddd\	.
.	16ccc\JJ	.
8G\ 8c\ 8d\ 8f#\	8aa'\)	.
8G\ 8c\ 8d\ 8f#\J	8r	.
=86	=86	=86
8G\ 8c\ 8d\ 8f#\L	(16ddd\LL	.
.	16ccc\	.
8G\ 8c\ 8d\ 8f#\	16ddd\	.
.	16ccc\JJ	.
8G\ 8c\ 8d\ 8f#\	8aa'\)	.
8G\ 8c\ 8d\ 8f#\J	8r	.
=87	=87	=87
8G\ 8B\ 8d\L	4b\	.
8G\ 8B\ 8d\	.	.
8G\ 8B\ 8d\	8dd\L	.
8G\ 8B\ 8d\J	8dd\J	.
=88	=88	=88
8G\ 8B\ 8d\L	8gg\L	.
8G\ 8B\ 8d\	8gg\J	.
8G\ 8B\ 8d\	4bb\	.
8G\ 8B\ 8d\J	.	.
=89	=89	=89
8G\ 8c\ 8d\ 8f#\L	(16ddd\LL	.
.	16cccn\	.
8G\ 8c\ 8d\ 8f#\	16ddd\	.
.	16ccc\JJ	.
8G\ 8c\ 8d\ 8f#\	8aan'\L)	.
8G\ 8c\ 8d\ 8f#\J	(16aa\L	.
.	16bb\JJ	.
=90	=90	=90
8G\ 8B\ 8d\ 8g\L	4gg'\)	.
8G\ 8B\	.	.
8G\ 8B\	4r	.
8G\ 8B\J	.	.
=91	=91	=91
8E\ 8G\ 8B\L	16bb\LL	.
.	16aa\	.
8E\ 8G\ 8B\	16gg\	.
.	16ff#\JJ	.
8E\ 8G\ 8B\	16ee\LL	.
.	16ff#\	.
8E\ 8G\ 8B\J	16gg\	.
.	16aa\JJ	.
=92	=92	=92
8E\ 8G\ 8B\L	8bb'\L	.
8E\ 8G\ 8B\	8bb'\J	.
8E\ 8G\ 8B\	4eee^\	.
8E\ 8G\ 8B\J	.	.
=93	=93	=93
8BB\ 8F#\ 8A\ 8B\L	(16eee\LL	.
.	16ddd#\	.
8BB\ 8F#\ 8A\ 8B\	16eee\	.
.	16ddd#\JJ	.
8BB\ 8F#\ 8A\ 8B\	8bb'\)	.
8BB\ 8F#\ 8A\ 8B\J	8r	.
=94	=94	=94
8BB\ 8F#\ 8A\ 8B\L	(16eee\LL	.
.	16ddd#\	.
8BB\ 8F#\ 8A\ 8B\	16eee\	.
.	16ddd#\JJ	.
8BB\ 8F#\ 8A\ 8B\	8bb'\)	.
8BB\ 8F#\ 8A\ 8B\J	8r	.
=95	=95	=95
8E\ 8G\ 8B\L	16bb\LL	.
.	16aa\	<
8E\ 8G\ 8B\	16gg\	.
.	16ff#\JJ	.
8E\ 8G\ 8B\	16ee\LL	.
.	16ff#\	.
8E\ 8G\ 8B\J	16gg\	.
.	16aa\JJ	.
=96	=96	=96
8E\ 8G\ 8B\L	8bb'\L	.
8E\ 8G\ 8B\	8bb'\J	.
8E\ 8G\ 8B\	4eee^\	.
8E\ 8G\ 8B\J	.	.
=97	=97	=97
8AA\ 8E\ 8G\ 8A\L	2ccc#\	.
8AA\ 8E\ 8G\ 8A\	.	.
8AA\ 8E\ 8G\ 8A\	.	.
8AA\ 8E\ 8G\ 8A\J	.	.
=98	=98	=98
8D\ 8F#\ 8A\L	4ddd\	.
8D\ 8F#\ 8A\	.	.
8D\ 8F#\ 8A\	4dd\	.
8D\ 8F#\ 8A\J	.	.
=99	=99	=99
8GG/ 8BB/ 8D/ 8G/L	16a#/LL	f
.	16b/	.
8GG/ 8BB/ 8D/ 8G/	16a#/	.
.	16b/JJ	.
8GG/ 8BB/ 8D/ 8G/	16cc#\LL	.
.	16dd\	.
8GG/ 8BB/ 8D/ 8G/J	16cc#\	.
.	16dd\JJ	.
=100	=100	=100
8GG/ 8BB/ 8D/ 8G/L	16ff#\LL	.
.	16gg\	.
8GG/ 8BB/ 8D/ 8G/	16ff#\	.
.	16gg\JJ	.
8GG/ 8BB/ 8D/ 8G/	16aa#\LL	.
.	16bb\	.
8GG/ 8BB/ 8D/ 8G/J	16aa#\	.
.	16bb\JJ	.
=101	=101	=101
8GG/ 8C/ 8D/ 8F#/L	16ddd\LL	.
.	16ccc#\	.
8GG/ 8C/ 8D/ 8F#/	16cccn\	.
.	16bb\JJ	.
8GG/ 8C/ 8D/ 8F#/	8aan\	.
8GG/ 8C/ 8D/ 8F#/J	8r	.
=102	=102	=102
8GG/ 8C/ 8D/ 8F#/L	16ddd\LL	.
.	16ccc#\	.
8GG/ 8C/ 8D/ 8F#/	16cccn\	.
.	16bb\JJ	.
8GG/ 8C/ 8D/ 8F#/	8aa\	.
8GG/ 8C/ 8D/ 8F#/J	8r	.
=103	=103	=103
8GG/ 8BB/ 8D/ 8G/L	16a#/LL	.
.	16b/J	.
8GG/ 8BB/ 8D/ 8G/	8B'/J	.
8GG/ 8BB/ 8D/ 8G/	(16cc#\LL	.
.	16dd\J)	.
8GG/ 8BB/ 8D/ 8G/J	8d'\J	.
=104	=104	=104
8GG/ 8BB/ 8D/ 8G/L	(16ff#\LL	.
.	&(16gg\J&))	.
8GG/ 8BB/ 8D/ 8G/	(8g'\J	.
8GG/ 8BB/ 8D/ 8G/	16aa#\LL	.
.	&(16bb\J&))	.
8GG/ 8BB/ 8D/ 8G/J	8b'\J	.
=105	=105	=105
8GG/ 8C/ 8D/ 8F#/L	16ddd\LL	.
.	16ccc#\	.
8GG/ 8C/ 8D/ 8F#/	16cccn\	.
.	16bb\JJ	.
8GG/ 8C/ 8D/ 8F#/	16aan\LL	.
.	16bb\	.
8GG/ 8C/ 8D/ 8F#/J	16ccc\	.
.	16aa\JJ	.
=106	=106	=106
4GG/ 4BB/ 4D/ 4G/	4gg\	.
4GG/	4r	.
=107!|:	=107!|:	=107!|:
*>E	*>E	*>E
*k[f#c#g#d#]	*k[f#c#g#d#]	*k[f#c#g#d#]
8r	4ee\ 4gg#\ 4bb\ 4eee\	f
(8EE/L	.	.
8GG#/	4b\ 4ee\ 4gg#\ 4bb\	.
8BB/J	.	.
=108	=108	=108
8E\L	4g#\ 4b\ 4ee\ 4gg#\	.
8G#\	.	.
8B\J)	8r	.
*	*^	*
8r	8ee/	(8e\ 8g#\	.
=109	=109	=109	=109
2r	8b/ &(8dd#/L&)	8f#\) 8a\L	.
.	8b/ 8ee/	8e\ 8g#\	.
.	8b/ 8ff#/	8d#\ 8f#\	.
.	8b/ 8gg#/J	8c#\ 8e\J	.
*	*v	*v	*
=110	=110	=110
8B\ 8d#\L	8b\ 8aa\L	.
8A\ 8c#\	8b\ 8bb\	.
8G#\ 8B\	8cc#\ 8ccc#\	.
8F#\ 8A\J	8dd#\ 8ddd#\J	.
=111	=111	=111
8r	4ee\ 4gg#\ 4bb\ 4eee\	.
(8EE/L	.	.
8GG#/	4b\ 4ee\ 4gg#\ 4bb\	.
8BB/J	.	.
=112	=112	=112
8E\L	4g#\ 4b\ 4ee\ 4gg#\	.
8G#\	.	.
8B\)	8r	.
(8e\J	(8g#/ 8b/	.
=113	=113	=113
8d#'\L)	8f#'/) 8b'/L	.
8e'\	8g#'/ 8b'/	.
8d#'\	8f#'/ 8b'/	.
8F#'\ 8c#'\J	8e'/ 8a#'/J	.
=114	=114	=114
*>E1	*>E1	*>E1
8BB\ 8B\L	4d#/ 4b/	.
8F#\	.	.
8BB\J	4r	.
8r	.	.
=115:|!	=115:|!	=115:|!
*>E2	*>E2	*>E2
8BB\ 8B\L	4d#/ 4b/	.
8F#\	.	.
8BB\J	8r	.
=!|:	=!|:	=!|:
*>F	*>F	*>F
8r	8b\	p
=116	=116	=116
8r	8b\ 8aan\L	.
*clefG2	*	*
8b/L	8b\ 8gg#\	.
8a/	8b\ 8ff#\	.
8g#/J	8b\ 8ee\J	.
=117	=117	=117
8f#/L	8b\ 8dd#\L	.
8e/	8b\ 8cc#\	.
8d#/	8b\	.
8B/J	8a\ 8b\J	.
*clefF4	*	*
=118	=118	=118
8e\L	8g#/ 8b/L	.
8A\	8f#/ 8b/	.
8G#\	8e/ 8b/	.
8F#\J	8d#/ 8b/J	.
=119	=119	=119
8G#\L	8e/ 8b/L	.
8A\	8d#/ 8b/	.
8G#\	8e/ 8b/	.
8E\J	8g#/ 8b/J	.
=120	=120	=120
8BB/	8b\ 8aa\L	f
8r	8b\ 8gg#\	p
*clefG2	*	*
8a/L	8b\ 8ff#\	.
8g#/J	8b\ 8ee\J	.
=121	=121	=121
8f#/L	8b\ 8dd#\L	.
8e/	8b\ 8cc#\	.
8d#/	8b\	.
8B/J	8a\ 8b\J	.
*clefF4	*	*
=122	=122	=122
8e\L	8g#/ 8b/L	.
8A\	8f#/ 8a/	.
8B\	8e/ 8g#/	.
8BB\J	8d#/ 8f#/J	.
=123	=123	=123
8E/L	4e/	.
8BB/	.	.
8EE/J	8r	.
=:|!	=:|!	=:|!
*>G	*>G	*>G
8r	8b\	f
=124	=124	=124
8r	4b\ 4ee\ 4gg#\ 4bb\	.
(8EE/L	.	.
8GG#/	4g#\ 4b\ 4ee\ 4gg#\	.
8BB/J	.	.
=125	=125	=125
8E\L	4e/ 4g#/ 4b/ 4ee/	.
8G#\	.	.
8B\)	8r	.
(8dn\J	[8e/ 8g#/	p
=126	=126	=126
8cn'\L)	8e'/] 8a'/L	.
8dn'\	8e'/ 8g#'/	.
8c'\	8e'/ 8a'/	.
8G#'\J	8e'/ 8b'/J	.
=127	=127	=127
8A'\L	8e'/ 8ccn'/L	<
8G#'\	8e'/ 8b'/	.
8A'\	8e'/ 8cc'/	.
8cn'\J	8dn'/ 8f#'/J	.
=128	=128	=128
8B'\L	8dn'/ 8gn'/L	.
8cn'\	8d'/ 8f#'/	.
8B'\	8d'/ 8g'/	.
8F#'\J	8d'/ 8a'/J	.
=129	=129	=129
*k[f#]	*k[f#]	*k[f#]
16GG\LL	4b\	f
16B\	.	.
16D\	.	.
16B\JJ	.	.
16G\LL	8dd\L	.
16B\	.	.
16D\	8dd\J	.
16B\JJ	.	.
=130	=130	=130
16GG\LL	8gg\L	.
16B\	.	.
16D\	8gg\J	.
16B\JJ	.	.
16G\LL	4bb\	.
16B\	.	.
16D\	.	.
16B\JJ	.	.
=131	=131	=131
16GG\LL	16ddd\LL	.
16c\	16ccc\	.
16D\	16ddd\	.
16c\JJ	16ccc\JJ	.
16F#\LL	8aa\	.
16c\	.	.
16D\	8r	.
16c\JJ	.	.
=132	=132	=132
16GG\LL	16ddd\LL	.
16c\	16ccc\	.
16D\	16ddd\	.
16c\JJ	16ccc\JJ	.
16F#\LL	8aa\	.
16c\	.	.
16D\	8r	.
16c\JJ	.	.
=133	=133	=133
16GG\LL	4b\	.
16B\	.	.
16D\	.	.
16B\JJ	.	.
16G\LL	8dd\L	.
16B\	.	.
16D\	8dd\J	.
16B\JJ	.	.
=134	=134	=134
16GG\LL	8gg\L	.
16B\	.	.
16D\	8gg\J	.
16B\JJ	.	.
16G\LL	4bb\	.
16B\	.	.
16D\	.	.
16B\JJ	.	.
=135	=135	=135
16GG\LL	16ddd\LL	.
16c\	16ccc\	.
16D\	16ddd\	.
16c\JJ	16ccc\JJ	.
16F#\LL	8aa\L	.
16c\	.	.
16D\	16aa\L	.
16c\JJ	16bb\JJ	.
=136	=136	=136
16GG\LL	4gg\	.
16B\	.	.
16D\	.	.
16B\JJ	.	.
8GG/	4r	.
8r	.	.
=137	=137	=137
16E\LL	16bb\LL	.
16e\	16aa\	.
16B\	16gg\	.
16e\JJ	16ff#\JJ	.
16F#\LL	16ee\LL	.
16e\	16ff#\	.
16B\	16gg\	.
16e\JJ	16aa\JJ	.
=138	=138	=138
16G\LL	8bb\L	.
16e\	.	.
16B\	8bb\J	.
16e\JJ	.	.
16E\LL	4eee\	.
16e\	.	.
16B\	.	.
16e\JJ	.	.
=139	=139	=139
16BB\LL	16eee\LL	.
16B\	16ddd#\	.
16A\	16eee\	.
16B\JJ	16ddd#\JJ	.
16D#\LL	8bb\	.
16B\	.	.
16A\	8r	.
16B\JJ	.	.
=140	=140	=140
16F#\LL	16eee\LL	.
16B\	16ddd#\	.
16A\	16eee\	.
16B\JJ	16ddd#\JJ	.
16D#\LL	8bb\	.
16B\	.	.
16A\	8r	.
16B\JJ	.	.
=141	=141	=141
16E\LL	16bb\LL	.
16e\	16aa\	.
16B\	16gg\	.
16e\JJ	16ff#\JJ	.
16F#\LL	16ee\LL	.
16e\	16ff#\	.
16B\	16gg\	.
16e\JJ	16aa\JJ	.
=142	=142	=142
16G\LL	8bb\L	.
16e\	.	.
16B\	8bb\J	.
16e\JJ	.	.
16E\LL	4eee\	.
16e\	.	.
16B\	.	.
16e\JJ	.	.
=143	=143	=143
16AA\LL	2ccc#\	.
16A\	.	.
16E\	.	.
16A\JJ	.	.
16G\LL	.	.
16A\	.	.
16E\	.	.
16A\JJ	.	.
=144	=144	=144
16D\LL	4ddd\	.
16E\	.	.
16F#\	.	.
16G\JJ	.	.
16A\LL	4dd\	.
16B\	.	.
16cn\	.	.
16A\JJ	.	.
=145	=145	=145
16GG\LL	4b\	.
16B\	.	.
16D\	.	.
16B\JJ	.	.
16G\LL	8dd\L	.
16B\	.	.
16D\	8dd\J	.
16B\JJ	.	.
=146	=146	=146
16GG\LL	8gg\L	.
16B\	.	.
16D\	8gg\J	.
16B\JJ	.	.
16G\LL	4bb\	.
16B\	.	.
16D\	.	.
16B\JJ	.	.
=147	=147	=147
16GG\LL	16ddd\LL	.
16c\	16cccn\	.
16D\	16ddd\	.
16c\JJ	16ccc\JJ	.
16F#\LL	8aa\	.
16c\	.	.
16D\	8r	.
16c\JJ	.	.
=148	=148	=148
16GG\LL	16ddd\LL	.
16c\	16ccc\	.
16D\	16ddd\	.
16c\JJ	16ccc\JJ	.
16F#\LL	8aa\	.
16c\	.	.
16D\	8r	.
16c\JJ	.	.
=149	=149	=149
16GG\LL	4b\	.
16B\	.	.
16D\	.	.
16B\JJ	.	.
16G\LL	8dd\L	.
16B\	.	.
16D\	8dd\J	.
16B\JJ	.	.
=150	=150	=150
16GG\LL	8gg\L	.
16B\	.	.
16D\	8gg\J	.
16B\JJ	.	.
16G\LL	4bb\	.
16B\	.	.
16D\	.	.
16B\JJ	.	.
=151	=151	=151
16GG\LL	16ddd\LL	.
16c\	16ccc\	.
16D\	16ddd\	.
16c\JJ	16ccc\JJ	.
16F#\LL	8aa\L	.
16c\	.	.
16D\	16aa\L	.
16c\JJ	16bb\JJ	.
=152	=152	=152
16GG\LL	4gg\	.
16B\	.	.
16D\	.	.
16B\JJ	.	.
8GG/	8r	.
8r	8g/	p
=153	=153	=153
4F#\	16dd\LL	.
.	16cc\	.
.	16dd\	.
.	16cc\JJ	.
16c#\LL	4a/	.
16d\	.	.
16c#\	.	.
16d\JJ	.	.
=154	=154	=154
4G\	16cc\LL	.
.	16b\	.
.	16cc\	.
.	16b\JJ	.
16c#\LL	4g/	.
16d\	.	.
16c#\	.	.
16d\JJ	.	.
=155	=155	=155
4A\	16b/LL	.
.	16a/	.
.	16b/	.
.	16a/JJ	.
16c#\LL	4f#/	.
16d\	.	.
16c#\	.	.
16d\JJ	.	.
=156	=156	=156
4B\	16a/LL	.
.	16g/	.
.	16a/	.
.	16g/JJ	.
16c#\LL	4dd\	.
16d\	.	.
16c#\	.	.
16d\JJ	.	.
=157	=157	=157
4F#\	16dd\LL	.
.	16cc\	.
.	16dd\	.
.	16cc\JJ	.
16e-\LL	4a/	<
16d\	.	.
16e-\	.	.
16d\JJ	.	.
=158	=158	=158
4G\	16cc\LL	.
.	16b-\	.
.	16cc\	.
.	16b-\JJ	.
16e-\LL	4g/	.
16d\	.	.
16e-\	.	.
16d\JJ	.	.
=159	=159	=159
4En\	16gg\LL	.
.	16cc#\	.
.	16gg\	.
.	16cc#\JJ	.
16G\LL	4g/	.
16B-\	.	.
16G\	.	.
16B-\JJ	.	.
=160	=160	=160
4E-\	16gg\LL	.
.	16cc#\	.
.	16gg\	.
.	16cc#\JJ	.
16G\LL	4g/	.
16B-\	.	.
16G\	.	.
16B-\JJ	.	.
=161	=161	=161
4D\	16ff#\LL	.
.	16dd\	.
.	16ff#\	.
.	16dd\JJ	>
16A\LL	4a/	.
16d\	.	.
16A\	.	.
16d\JJ	.	.
=162	=162	=162
4D\	16ff#\LL	.
.	16dd\	.
.	16ff#\	.
.	16dd\JJ	.
16A\LL	4a/	.
16d\	.	.
16A\	.	.
16d\JJ	.	.
=163	=163	=163
4E-\	16gg\LL	.
.	16dd-\	.
.	16gg\	.
.	16dd-\JJ	.
16G\LL	4g/	.
16B-\	.	.
16G\	.	.
16B-\JJ	.	.
=164	=164	=164
4E-\	16gg\LL	.
.	16dd-\	.
.	16gg\	.
.	16dd-\JJ	.
16G\LL	4g/	.
16B-\	.	.
16G\	.	.
16B-\JJ	.	.
=165	=165	=165
8A-\ 8c\L	4ccn\	pp
8A-\ 8c\ 8e-\	.	.
8A-\ 8c\ 8e-\	8ee-\L	.
8A-\ 8c\ 8e-\J	8ee-\J	.
=166	=166	=166
8A-\ 8c\ 8e-\L	8aa-\L	.
8A-\ 8c\ 8e-\	8aa-\J	.
8A-\ 8c\ 8e-\	4ccc\	.
8A-\ 8c\ 8e-\J	.	.
=167	=167	=167
8A-\ 8d-\ 8e-\ 8g\L	16eee-\LL	.
.	16ddd-\	.
8A-\ 8d-\ 8e-\ 8g\	16eee-\	.
.	16ddd-\JJ	.
8A-\ 8d-\ 8e-\ 8g\	4bb-\	.
8A-\ 8d-\ 8e-\ 8g\J	.	.
=168	=168	=168
8A-\ 8d-\ 8e-\ 8g\L	16eee-\LL	.
.	16ddd-\	.
8A-\ 8d-\ 8e-\ 8g\	16eee-\	.
.	16ddd-\JJ	.
8A-\ 8d-\ 8e-\ 8g\	4bb-\	.
8A-\ 8d-\ 8e-\ 8g\J	.	.
=169	=169	=169
8A-\ 8c\ 8e-\L	4cc\	.
8A-\ 8c\ 8e-\	.	.
8A-\ 8c\ 8e-\	8ee-\L	.
8A-\ 8c\ 8e-\J	8ee-\J	.
=170	=170	=170
8A-\ 8c\ 8e-\L	8aa-\L	.
8A-\ 8c\ 8e-\	8aa-\J	.
8A-\ 8c\ 8e-\	4ccc\	.
8A-\ 8c\ 8e-\J	.	.
=171	=171	=171
8A-\ 8d-\ 8e-\ 8g\L	16eee-\LL	.
.	16ddd-\	.
8A-\ 8d-\ 8e-\ 8g\	16eee-\	.
.	16ddd-\JJ	.
8A-\ 8d-\ 8e-\ 8g\	8bb-\L	.
8A-\ 8d-\ 8e-\ 8g\J	16bb-\L	.
.	16ccc\JJ	.
=172	=172	=172
8A-\ 8c\ 8e-\ 8a-\	8aa-\	<
8G'\L	8r	.
8A-'\	4r	.
8B-'\J	.	.
=173	=173	=173
16c\LL	8a-\ 8cc\L	mf
16B-\	.	.
16A-\	8a-\ 8cc\	.
16G\JJ	.	.
16Fn\LL	8a-\ 8cc\	.
16G\	.	.
16A-\	8a-\ 8cc\J	.
16B-\JJ	.	.
=174	=174	=174
8c'\L	8a-\ 8cc\L	.
8c'\J	8a-\ 8cc\	.
4fn^\	8a-\ 8cc\	.
.	8a-\ 8cc\J	.
=175	=175	=175
16fn\LL	8b-\ 8cc\L	.
16en\	.	.
16f\	8b-\ 8cc\	.
16e\JJ	.	.
4c\	8b-\ 8cc\	.
.	8b-\ 8cc\J	.
=176	=176	=176
16fn\LL	8b-\ 8cc\L	.
16e\	.	.
16f\	8b-\ 8cc\	.
16e\JJ	.	.
4c\	8b-\ 8cc\	.
.	8b-\ 8cc\J	.
=177	=177	=177
16c\LL	8a-\ 8cc\L	.
16B-\	.	.
16A-\	8a-\ 8cc\	.
16G\JJ	.	.
16Fn\LL	8a-\ 8cc\	.
16G\	.	.
16A-\	8a-\ 8cc\J	.
16B-\JJ	.	.
=178	=178	=178
8c'\L	8a-\ 8cc\L	.
8c'\J	8a-\ 8cc\	.
4fn^\	8a-\ 8cc\	.
.	8a-\ 8cc\J	.
=179	=179	=179
2dn\	8a-/ 8b-/L	.
.	8a-/ 8b-/	.
.	8a-/ 8b-/	.
.	8a-/ 8b-/J	.
=180	=180	=180
4e-\	8g/ 8b-/L	.
.	8g/ 8b-/	.
4r	8g/ 8b-/	.
.	8g/ 8b-/J	.
=181	=181	=181
8A-\ 8c\ 8e-\L	4cc\	<
8A-\ 8c\ 8e-\	.	.
8A-\ 8c\ 8e-\	8ee-\L	.
8A-\ 8c\ 8e-\J	8ee-\J	.
=182	=182	=182
8A-\ 8c\ 8e-\L	8aa-\L	.
8A-\ 8c\ 8e-\	8aa-\J	.
8A-\ 8c\ 8e-\	4ccc\	.
8A-\ 8c\ 8e-\J	.	.
=183	=183	=183
8G\ 8B-\ 8d-\ 8e-\L	16eee-\LL	.
.	16ddd-\	.
8G\ 8B-\ 8d-\ 8e-\	16eee-\	.
.	16ddd-\JJ	.
8G\ 8B-\ 8d-\ 8e-\	4bb-\	.
8G\ 8B-\ 8d-\ 8e-\J	.	.
=184	=184	=184
8G\ 8B-\ 8d-\ 8e-\L	16eee-\LL	.
.	16ddd-\	.
8G\ 8B-\ 8d-\ 8e-\	16eee-\	.
.	16ddd-\JJ	.
8G\ 8B-\ 8d-\ 8e-\	4bb-\	.
8G\ 8B-\ 8d-\ 8e-\J	.	.
=185	=185	=185
4AA-/	16r	.
.	16ccc\LL	f
.	16aa-\	.
.	16ee-\JJ	.
8C/L	16cc\LL	.
.	16aa-\	.
8C/J	16ee-\	.
.	16cc\JJ	.
=186	=186	=186
8E-\L	16a-/LL	.
.	16cc/	.
8E-\J	16a-/	.
.	16e-/JJ	.
4A-\	16c/LL	.
.	16a-/	.
.	16e-/	.
.	16c/JJ	.
=187	=187	=187
4B-\	16r	.
.	16g\LL	.
.	16cc\	.
.	16een\JJ	.
8G\L	16gg\LL	.
.	16cc\	.
8G\J	16ee\	.
.	16gg\JJ	.
=188	=188	=188
8En\L	16ccc\LL	.
.	16ee\	.
8E\J	16gg\	.
.	16ccc\JJ	.
4C/	16eeen\LL	.
.	16gg\	.
.	16ccc\	.
.	16eee\JJ	.
=189	=189	=189
4AA-/	16r	.
.	16fffn\LL	.
.	16ccc\	.
.	16aa-\JJ	.
8C/L	16ffn\LL	.
.	16ccc\	.
8C/J	16aa-\	.
.	16ff\JJ	.
=190	=190	=190
8Fn\L	16cc\LL	.
.	16een\	.
8F\J	16cc\	.
.	16a-\JJ	.
4A-\	16fn/LL	.
.	16cc/	.
.	16a-/	.
.	16f/JJ	.
=191	=191	=191
4G-\	16r	.
.	16c/LL	.
.	16e-/	.
.	16a-/JJ	.
8E-\L	16cc/LL	.
.	16e-/	.
8E-\J	16a-/	.
.	16cc/JJ	.
=192	=192	=192
8C/L	16ee-\LL	.
.	16a-\	.
8C/J	16cc\	.
.	16ee-\JJ	.
4GG-/	16aa-\LL	.
.	16cc\	.
.	16ee-\	.
.	16aa-\JJ	.
=193	=193	=193
16r	4d-/ 4dd-/	.
16Fn/LL	.	.
16D-/	.	.
16AA-/JJ	.	.
16FFn/LL	8fn\ 8ffn\L	.
16D-/	.	.
16AA-/	8f\ 8ff\J	.
16FF/JJ	.	.
=194	=194	=194
16DD-/LL	8a-\ 8aa-\L	.
16FFn/	.	.
16DD-/	8a-\ 8aa-\J	.
16AAA-/JJ	.	.
16FFFn/LL	4dd-\ 4ddd-\	.
16AAA-/	.	.
16DD-/	.	.
16FF/JJ	.	.
=195	=195	=195
16FFFn/LL	4ee-\ 4eee-\	.
16AAAn/	.	.
16CC/	.	.
16FFn/JJ	.	.
16AAA/LL	8cc\ 8ee-\ 8aan\ 8ccc\L	.
16CC/	.	.
16FF/	8cc\ 8ee-\ 8aa\ 8ccc\J	.
16AAn/JJ	.	.
=196	=196	=196
16CC/LL	8a\ 8cc\ 8ee-\ 8aa\L	.
16FFn/	.	.
16AA/	8a\ 8cc\ 8ee-\ 8aa\J	.
16C/JJ	.	.
16FF/LL	4e-/ 4ee-/	.
16AA/	.	.
16C/	.	.
16Fn/JJ	.	.
=197	=197	=197
16BB-/LL	4dd-\	.
16Fn/	.	.
16D-/	.	.
16BB-/JJ	.	.
16FFn/LL	8ffn\L	.
16D-/	.	.
16BB-/	8ff\J	.
16FF/JJ	.	.
=198	=198	=198
16DD-/LL	8bb-\L	.
16BB-/	.	.
16FFn/	8bb-\J	.
16DD-/JJ	.	.
16BBB-/LL	4ddd-\	.
16DD-/	.	.
16FF/	.	.
16BB-/JJ	.	.
=199	=199	=199
16DD-/LL	4ccc-\	.
16FFn/	.	.
16AA-/	.	.
16D-/JJ	.	.
16FF/LL	8aa-\L	.
16AA-/	.	.
16D-/	8aa-\J	.
16Fn/JJ	.	.
=200	=200	=200
16AA-\LL	8ffn\L	.
16D-\	.	.
16Fn\	8ff\J	.
16A-\JJ	.	.
16D-\LL	4cc-\	.
16F\	.	.
16A-\	.	.
16d-\JJ	.	.
=201	=201	=201
16G-\LL	4b-\	ff
16d-\	.	.
16B-\	.	.
16G-\JJ	.	.
16D-\LL	8dd-\L	.
16B-\	.	.
16G-\	8dd-\J	.
16D-\JJ	.	.
=202	=202	=202
16BB-/LL	8gg-\L	.
16G-/	.	.
16D-/	8gg-\J	.
16BB-/JJ	.	.
16GG-/LL	4bb-\	.
16BB-/	.	.
16D-/	.	.
16G-/JJ	.	.
=203	=203	=203
16EEn/LL	4ddd-\	.
16GGn/	.	.
16BB-/	.	.
16D-/JJ	.	.
16GG/LL	8bb-\L	.
16BB-/	.	.
16D-/	8bb-\J	.
16En/JJ	.	.
=204	=204	=204
16GG/LL	8ggn\L	.
16BB-/	.	.
16D-/	8gg\J	.
16En/JJ	.	.
16GG/LL	4een\	.
16BB-/	.	.
16D-/	.	.
16E/JJ	.	.
=205	=205	=205
16r	4eee-\	.
16FFn/LL	.	.
16AAn/	.	.
16C/JJ	.	.
16FF/LL	8ccc\L	.
16AA/	.	.
16C/	8ccc\J	.
16Fn/JJ	.	.
=206	=206	=206
16FFn/LL	8aan\L	.
16AA/	.	.
16C/	8aa\	.
16E-/JJ	.	.
16FF/LL	8ffn\	.
16AA/	.	.
16C/	8ff\J	.
16E-/JJ	.	.
=207	=207	=207
4FFn/	16ee-/LL	.
.	16A/	.
.	16B-/	.
.	16c/JJ	.
4r	16d/LL	.
.	16e-/	.
.	16fn/	.
.	16g/JJ	.
=208	=208	=208
2r	16a\LL	.
.	16b-\	.
.	16cc\	.
.	16dd\JJ	.
.	16ee-\LL	.
.	16ffn\	.
.	16gg\	.
.	16aa\JJ	.
=209	=209	=209
2r	16bb-\LL	.
.	16ccc\	.
.	16ddd\	.
.	16eee-\JJ	.
.	16fffn\LL	.
.	16eee-\	.
.	16ddd\	.
.	16ccc\JJ	.
=210	=210	=210
2r	16bb-\LL	.
.	16aa\	.
.	16gg\	.
.	16ffn\JJ	.
.	16ee-\LL	>
.	16dd\	.
.	16cc\	.
.	16b-\JJ	.
=211	=211	=211
2r	16a/LL	.
.	16g/	.
.	16fn/	.
.	16e-/JJ	.
.	16d/LL	.
.	16c/	.
.	16B-/	.
.	16A/JJ	.
=212	=212	=212
16G/LL	2r	.
16Fn/	.	.
16E-/	.	.
16D/JJ	.	.
16C/LL	.	.
16BB-/	.	.
16AA/	.	.
16GG/JJ	.	.
=213	=213	=213
16FFn/LL	2r	.
16GG/	.	.
16AA/	.	.
16BB-/JJ	.	.
16C/LL	.	.
16D/	.	.
16E-/	.	.
16Fn/JJ	.	.
=214	=214	=214
16G/LL	4r	.
16A/	.	.
16B-/	.	.
16c/JJ	.	.
4r	16d/LL	.
.	16e-/	.
.	16fn/	.
.	16g/JJ	.
=215	=215	=215
2r	16a\LL	.
.	16b-\	.
.	16cc\	.
.	16dd\JJ	.
.	16ee-\LL	.
.	16ffn\	.
.	16gg\	.
.	16ff\JJ	.
=216	=216	=216
2r	16ee-\LL	.
.	16dd\	.
.	16cc\	.
.	16b-\JJ	.
.	16a/LL	.
.	16a-/	.
.	16g/	.
.	16g-/JJ	.
=217	=217	=217
*^	*	*
4r	2BB-\	(8en/L	p
.	.	8fn/J	.
(8En/L	.	4b-\	.
8Fn/J	.	.	.
=218	=218	=218	=218
4B-/	2BB-\	8cc#\L	.
.	.	8dd\J	.
8E/L	.	4ffn\	.
8Fn/J	.	.	.
=219	=219	=219	=219
4A/	2BB-\	8ffn\L	.
.	.	8ee-\J	.
8En/L	.	4cc\	.
8Fn/J	.	.	.
=220	=220	=220	=220
4A/	2BB-\	8ffn\L	.
.	.	8ee-\J	.
8En/L	.	4cc\)	.
8Fn/J)	.	.	.
=221	=221	=221	=221
4r	2BB-\	(8c#/L	.
.	.	8d/J	.
(8C#/L	.	4fn/	.
8D/J	.	.	.
=222	=222	=222	=222
4Fn/	2BB-\	8a/L	.
.	.	8b-/J	.
8En/L	.	4dd\	.
8F/J)	.	.	.
=223	=223	=223	=223
4r	2BB-\	8ffn\L	.
.	.	8ee-\J	.
(8G#/L	.	4e-/ 4cc/	.
8A/J)	.	.	.
=224	=224	=224	=224
4r	2BB-\	4d/ 4b-/)	.
(8A/L	.	4r	.
8B-/J)	.	.	.
*v	*v	*	*
=225	=225	=225
4r	(8c#/ 8cc#/L	.
.	8d/) 8dd/J	.
8F#\ (8A\L	4g^\ 4gg^\	.
8G\ 8B-\J)	.	.
=226	=226	=226
4r	(8c#/ 8cc#/L	.
.	8d/) 8dd/J	.
8F#\ (8A\L	4g^\ 4gg^\	.
8G\ 8B-\J)	.	.
=227	=227	=227
4r	8g\ (8gg\L	.
.	8f#\ 8ff#\J)	.
8G#\ (8Bn\L	4d^/ 4dd^/	.
8A\ 8c\J)	.	.
=228	=228	=228
4r	8g\ (8gg\L	.
.	8f#\ 8ff#\J)	.
8G#\ (8Bn\L	4d^/ 4dd^/	.
8A\ 8c\J)	.	.
=229	=229	=229
4r	(8c#/ 8cc#/L	.
.	8d/) 8dd/J	.
8F#\ (8A\L	4g\ 4gg\	.
8G\ 8B-\J)	.	.
=230	=230	=230
4r	(8c#/ 8cc#/L	.
.	8d/) 8dd/J	.
8F#\ (8A\L	4g\ 4gg\	.
8G\ 8B-\J)	.	.
=231	=231	=231
4r	8fn\ (8ffn\L	.
.	8e-\ 8ee-\J)	.
8F#\ (8A\L	4r	.
8G\ 8B-\J)	.	.
=232	=232	=232
4r	8g\ (8gg\L	.
.	8fn\ 8ffn\J)	.
8G#\ (8Bn\L	4r	.
8A\ 8c\J)	.	.
=233	=233	=233
*^	*	*
4r	2BB-\	8c#/ (8cc#/L	<
.	.	8d/ 8dd/J	.
(8C#/L	.	4fn\ 4ffn\	.
8D/J	.	.	.
=234	=234	=234	=234
4Fn/	2BB-\	8a\ 8aa\L	.
.	.	8b-\ 8bb-\J	.
8A/L	.	4dd\ 4ddd\)	.
8B-/J)	.	.	.
=235	=235	=235	=235
4r	2BB-\	8ffn\ (8fffn\L	.
.	.	8ee-\ 8eee-\J	.
(8G#/L	.	4cc\ 4ccc\	.
8A/J)	.	.	.
=236	=236	=236	=236
4r	2BB-\	8ffn\ 8fffn\L	.
.	.	8ee-\ 8eee-\J	.
(8G#/L	.	4cc\ 4ccc\)	.
8A/J)	.	.	.
=237	=237	=237	=237
4r	2BB-\	8c#/ (8cc#/L	.
.	.	8d/ 8dd/J	.
(8C#/L	.	4fn\ 4ffn\	.
8D/J	.	.	.
=238	=238	=238	=238
4Fn/	2BB-\	8a\ 8aa\L	.
.	.	8b-\ 8bb-\J	.
8A/L	.	4dd\ 4ddd\)	.
8B-/J)	.	.	.
=239	=239	=239	=239
*	*	*^	*
4r	2A\	8ffn/L	2fn\	.
.	.	8ee-/J	.	.
8d/L	.	4cc/	.	.
8e-/J	.	.	.	.
=240	=240	=240	=240	=240
4r	2B-\	8ffn/L	2fn\	.
.	.	8dd/J	.	.
8c#/L	.	4b-/	.	.
8d/J	.	.	.	.
=241	=241	=241	=241	=241
4r	2Bn\	8gg/L	2g\	.
.	.	8ffn/J	.	.
8en/L	.	4dd/	.	.
8fn/J	.	.	.	.
=242	=242	=242	=242	=242
4r	2c\	8gg/L	2g\	.
.	.	8ee-/J	.	.
8d/L	.	4dd/	.	.
8e-/J	.	.	.	.
*	*	*v	*v	*
=243	=243	=243	=243
4r	2A\	8ccc\L	<
.	.	8ff#\J	.
8Bn/L	.	4cc\	.
8c/J	.	.	.
=244	=244	=244	=244
4r	2G\	8ccc\L	.
.	.	8gg\J	.
8B/L	.	4cc\	.
8c/J	.	.	.
=245	=245	=245	=245
4r	2F#\	8ccc\L	.
.	.	8aa\J	.
8B/L	.	4cc\	.
8c/J	.	.	.
=246	=246	=246	=246
4r	2En\	8ccc\L	.
.	.	8aa\J	.
8B/L	.	4cc\	.
8c/J	.	.	.
*v	*v	*	*
=247	=247	=247
4D\ 4F#\ 4A\ 4d\	16r	.
.	16ccc\LL	f
.	16eee\	.
.	16ddd\JJ	.
4r	16ccc\LL	.
.	16bb\	.
.	16aa\	.
.	16gg\JJ	.
=248	=248	=248
2r	16ff#\LL	.
.	16ee\	.
.	16dd\	.
.	16cc\JJ	.
.	16b/LL	.
.	16a/	.
.	16g/	.
.	16f#/JJ	.
=249	=249	=249
4r	16e/LL	.
.	16d/	.
.	16c/	.
.	16B/JJ	.
16A/LL	4r	.
16G/	.	.
16F#/	.	.
16E/JJ	.	.
=250	=250	=250
16D/LL	2r	.
16C/	.	.
16BB/	.	.
16AA/JJ	.	.
16GG/LL	.	.
16FF#/	.	.
16EE/	.	.
16DD/JJ	.	.
=251	=251	=251
16CC#/LL	2r	.
16DD/	.	.
16EE/	.	.
16FF#/JJ	.	.
16GG/LL	.	.
16AA/	.	.
16BB/	.	.
16Cn/JJ	.	.
=252	=252	=252
*^	*	*
12D'/L	2r	2r	.
12D#'/	.	.	.
12E'/J	.	.	.
12Fn'/L	.	.	.
12F#'/	.	.	.
12G'/J	.	.	.
=253	=253	=253	=253
12G#/L	2r	2r	.
12A/	.	.	.
12A#/J	.	.	.
12B/L	.	.	.
12c/	.	.	.
12c#/J	.	.	.
*v	*v	*	*
=254	=254	=254
2r	12d/L	>
.	12e/	.
.	12f#/J	.
.	12g/L	.
.	12a/	.
.	12a#/J	.
=255	=255	=255
4r	(8a#/L	.
.	8b/J	.
(8F#\L	4d/ 4b/ 4dd/	.
8G\J	.	.
=256	=256	=256
4D\	8ff#\L	.
.	8gg\J	.
8F#\L	4b\ 4dd\ 4bb\)	.
8G\J)	.	.
=257	=257	=257
*^	*	*
4r	(4D\	(8ddd\L	.
.	.	8ccc\J	.
8c/L	4F#\	4dd\ 4aa\	.
8d/J	.	.	.
=258	=258	=258	=258
4r	4D\	8ddd\L	.
.	.	8ccc\J	.
8c/L	4F#\)	4dd\ 4aa\)	.
8d/J	.	.	.
=259	=259	=259	=259
4B/	(4G\	(8a#/L	.
.	.	8b/J	.
4ryy	8F#\L	4d/ 4b/ 4dd/	.
.	8G\J	.	.
*v	*v	*	*
=260	=260	=260
4D\	8ff#\L	.
.	8gg\J	.
8F#\L	4b\ 4dd\ 4bb\	.
8G\J	.	.
=261	=261	=261
*^	*	*
4r	4D\	8ddd\L	.
.	.	8ccc\J	.
8c/L	4F#\	4dd\ 4aa\	.
8d/J	.	.	.
=262	=262	=262	=262
8G\)	8B/	4dd\ 4gg\)	.
4.ryy	8D'/L	.	.
.	8BB'/	4r	.
.	8GG'/J	.	.
*v	*v	*	*
=263	=263	=263
4r	8a#\ 8aa#\L	.
.	8b\ 8bb\J	.
*clefG2	*	*
(8d#/ 8f#/L	4ee\ 4eee\	.
8e/) 8g/J	.	.
=264	=264	=264
4r	8a#\ 8aa#\L	.
.	8b\ 8bb\J	.
(8d#/ 8f#/L	4ee\ 4eee\	.
8e/) 8g/J	.	.
=265	=265	=265
4r	8ee\ (8eee\L	.
.	8dd#\ 8ddd#\J	.
(8e#/ 8g#/L	4b\ 4bb\)	.
8f#/) 8a/J	.	.
=266	=266	=266
4r	8ee\ (8eee\L	.
.	8dd#\ 8ddd#\J	.
(8e#/ 8g#/L	4b\ 4bb\)	.
8f#/) 8a/J	.	.
=267	=267	=267
4r	8a#\ (8aa#\L	.
.	8b\ 8bb\J	.
(8d#/ 8f#/L	4ee\ 4eee\	.
8en/) 8gn/J	.	.
=268	=268	=268
4r	8a#\ 8aa#\L	.
.	8b\ 8bb\J	.
(8d#/ 8f#/L	4ee\ 4eee\)	.
8e/) 8g/J	.	.
=269	=269	=269
4r	8ddn\ 8dddn\L	>
.	8cc#\ 8ccc#\J	.
(8d#/ 8f#/L	4r	.
8e/) 8g/J	.	.
=270	=270	=270
4r	8ee\ 8eee\L	.
.	8dd\ 8ddd\J	.
(8e#/ 8g#/L	4r	.
8f#/) 8a/J	.	.
*clefF4	*	*
=271	=271	=271
16Gn\LL	(8a#\L	f
16d\	.	.
16B\	8b\)	.
16G\JJ	.	.
16D\LL	(8cc#\	.
16B\	.	.
16G\	8dd\J)	.
16D\JJ	.	.
=272	=272	=272
16BB/LL	(8ff#\L	.
16G/	.	.
16D/	8gg\)	.
16BB/JJ	.	.
16GG/LL	(8aa#\	.
16D/	.	.
16BB/	8bb\J)	.
16GG/JJ	.	.
=273	=273	=273
16FF#/LL	(16ddd\LL	.
16AA/	16ccc\	.
16DD/	16ddd\	.
16FF#/JJ	16ccc\JJ	.
16AA\LL	4aan\)	.
16D\	.	.
16F#\	.	.
16A\JJ	.	.
=274	=274	=274
16F#\LL	16ddd\LL	.
16A\	16ccc\	.
16D\	16ddd\	.
16F#\JJ	16ccc\JJ	.
16A\LL	4aa\	.
16d\	.	.
16c\	.	.
16A\JJ	.	.
=275	=275	=275
16G\LL	(8a#\L	.
16d\	.	.
16B\	8b\)	.
16G\JJ	.	.
16D\LL	(8cc#\	.
16B\	.	.
16G\	8dd\J)	.
16D\JJ	.	.
=276	=276	=276
16BB/LL	(8ff#\L	.
16G/	.	.
16D/	8gg\)	.
16BB/JJ	.	.
16GG/LL	(8aa#\	.
16D/	.	.
16BB/	8bb\J)	.
16GG/JJ	.	.
=277	=277	=277
16DD\LL	16ddd\LL	.
16D\	16ccc\	.
16F#\	16ddd\	.
16A\JJ	16ccc\JJ	.
16D\LL	8aan\L	.
16c\	.	.
16F#\	16aa\L	.
16c\JJ	16bb\JJ	.
=278	=278	=278
16G\LL	4gg\	.
16B\	.	.
16d\	.	.
16B\JJ	.	.
8G\	8r	.
8r	8dd\	pp
*clefG2	*	*
=279	=279	=279
4r	16ddd\LL	.
.	16ccc\	.
.	16ddd\	.
.	16ccc\JJ	.
16gg\LL	4aa\	.
16ff#\	.	.
16gg\	.	.
16ff#\JJ	.	.
=280	=280	=280
4r	16ccc\LL	.
.	16bb\	.
.	16ccc\	.
.	16bb\JJ	.
16dd#\LL	4gg\	.
16ee\	.	.
16dd#\	.	.
16ee\JJ	.	.
=281	=281	=281
4r	16bb\LL	.
.	16aa\	.
.	16bb\	.
.	16aa\JJ	.
16ee\LL	4ff#\	.
16dd#\	.	.
16ee\	.	.
16dd#\JJ	.	.
=282	=282	=282
4r	16aa\LL	.
.	16gg\	.
.	16aa\	.
.	16gg\JJ	.
16b\LL	4ee\	.
16cc\	.	.
16b\	.	.
16cc\JJ	.	.
=283	=283	=283
4r	16gg\LL	.
.	16ffn\	.
.	16gg\	.
.	16ff\JJ	.
16cc\LL	4ddn\	.
16b\	.	.
16cc\	.	.
16b\JJ	.	.
=284	=284	=284
4g#/	16ffn\LL	.
.	16ee\	.
.	16ff\	.
.	16ee\JJ	.
16b/LL	4cc\	.
16a/	.	.
16b/	.	.
16a/JJ	.	.
=285	=285	=285
4f#/	16ee\LL	.
.	16dd\	.
.	16ee\	.
.	16dd\JJ	.
16a/LL	4b\	.
16gn/	.	.
16a/	.	.
16g/JJ	.	.
=286	=286	=286
4e/	16dd\LL	.
.	16cc\	.
.	16dd\	.
.	16cc\JJ	.
16g/LL	4a/	.
16f#/	.	.
16g/	.	.
16f#/JJ	.	.
*clefF4	*	*
=287	=287	=287
8d#\L	16cc/LL	.
.	16b/	.
8e\	16a/	.
.	16g/JJ	<
8c#\	16b/LL	.
.	16a/	.
8dn\J	16g/	.
.	16f#/JJ	.
=288	=288	=288
8B\L	16a/LL	.
.	16g/	.
8cn\	16f#/	.
.	16e/JJ	.
8A\	16g/LL	.
.	16f#/	.
8B\J	16e/	.
.	16d/JJ	.
=289	=289	=289
8G\L	16f#/LL	.
.	16e/	.
8A\	16d/	.
.	16c/JJ	.
8F#\	16e/LL	.
.	16d/	.
8G\J	16c/	.
.	16B/JJ	.
=290	=290	=290
8E\L	16d/LL	.
.	16c/	.
8F#\	16B/	.
.	16A/JJ	.
8D#\	16c/LL	.
.	16B/	.
8E\J	16A/	.
.	16G/JJ	f
=291	=291	=291
*^	*	*
16D#/LL	2AA\ 2C\	2r	.
16d#/	.	.	.
16F#/	.	.	.
16d#/JJ	.	.	.
16c/LL	.	.	.
16d#/	.	.	.
16D#/	.	.	.
16d#/JJ	.	.	.
=292	=292	=292	=292
16E/LL	2AA#\ 2C#\	2r	.
16e/	.	.	.
16G/	.	.	.
16e/JJ	.	.	.
16c#/LL	.	.	.
16e/	.	.	.
16E/	.	.	.
16e/JJ	.	.	.
=293	=293	=293	=293
16r	4BB\	4r	.
16B/LL	.	.	.
16c#/	.	.	.
16d#/JJ	.	.	.
*v	*v	*	*
4r	16e/LL	.
.	16f#/	.
.	16g#/	.
.	16a#/JJ	.
=294	=294	=294
2r	16b\LL	.
.	16cc#\	.
.	16dd#\	.
.	16ee\JJ	.
.	16ff#\LL	.
.	16gg#\	.
.	16aa#\	.
.	16bb\JJ	.
=295	=295	=295
2D\ 2Fn\	16G#/LL	.
.	16g#/	.
.	16B/	.
.	16g#/JJ	.
.	16fn/LL	.
.	16g#/	.
.	16G#/	.
.	16g#/JJ	.
=296	=296	=296
2D#\ 2F#\	16A/LL	.
.	16a/	.
.	16cn/	.
.	16a/JJ	.
.	16f#/LL	.
.	16a/	.
.	16A/	.
.	16a/JJ	.
=297	=297	=297
4E\ 4G#\	16r	.
.	16e/LL	.
.	16f#/	.
.	16g#/JJ	.
4r	16a\LL	.
.	16b\	.
.	16cc#\	.
.	16dd#\JJ	.
=298	=298	=298
2r	16ee\LL	.
.	16ff#\	.
.	16gg#\	.
.	16aa\JJ	.
.	16bb\LL	.
.	16ccc#\	.
.	16ddd#\	.
.	16eee\JJ	.
=299	=299	=299
2Gn\ 2B-\	16c#/LL	.
.	16cc#/	.
.	16e/	.
.	16cc#/JJ	.
.	16b-\LL	.
.	16cc#\	.
.	16c#\	.
.	16cc#\JJ	.
=300	=300	=300
[2G#\ [2Bn\	16d/LL	.
.	16dd/	.
.	16fn/	.
.	16dd/JJ	.
.	16bn\LL	.
.	16dd\	.
.	16d\	.
.	16dd\JJ	.
=301	=301	=301
2G#\] 2B\]	16d/LL	.
.	16dd/	.
.	16fn/	.
.	16dd/JJ	.
.	16b\LL	.
.	16dd\	.
.	16d\	.
.	16dd\JJ	.
=302	=302	=302
2C\ 2c\	16e-\LL	.
.	16ee-\	.
.	16g\	.
.	16ee-\JJ	.
.	16cc\LL	.
.	16ee-\	.
.	16e-\	.
.	16ee-\JJ	.
=303	=303	=303
2Fn\ 2A\	16c/LL	.
.	16cc/	.
.	16e-/	.
.	16cc/JJ	.
.	16a/LL	.
.	16cc/	.
.	16c/	.
.	16cc/JJ	.
=304	=304	=304
2G-\ 2A\	16c/LL	.
.	16cc/	.
.	16e-/	.
.	16cc/JJ	.
.	16a/LL	.
.	16cc/	.
.	16c/	.
.	16cc/JJ	.
=305	=305	=305
2Fn\ 2A\	16c/LL	.
.	16cc/	.
.	16e-/	.
.	16cc/JJ	.
.	16a/LL	.
.	16cc/	.
.	16c/	.
.	16cc/JJ	.
=306	=306	=306
2BB-\ 2B-\	16d-/LL	.
.	16dd-/	.
.	16fn/	.
.	16dd-/JJ	.
.	16b-\LL	.
.	16dd-\	.
.	16d-\	.
.	16dd-\JJ	.
=307	=307	=307
2E-\ 2G\	16B-/LL	.
.	16b-/	.
.	16d-/	.
.	16b-/JJ	.
.	16g/LL	.
.	16b-/	.
.	16B-/	.
.	16b-/JJ	.
=308	=308	=308
2F-\ 2G\	16B-/LL	.
.	16b-/	.
.	16d-/	.
.	16b-/JJ	.
.	16g/LL	.
.	16b-/	.
.	16B-/	.
.	16b-/JJ	.
=309	=309	=309
4E-\ 4G\	16r	.
.	16B-/LL	.
.	16c/	.
.	16d-/JJ	.
4r	16e-/LL	.
.	16fn/	.
.	16g/	.
.	16a-/JJ	.
=310	=310	=310
2r	16b-\LL	.
.	16cc\	.
.	16dd-\	.
.	16ee-\JJ	.
.	16ffn\LL	.
.	16gg\	.
.	16aa-\	.
.	16bb-\JJ	.
=311	=311	=311
16AAA-/LL	4ccc\	ff
16CC/	.	.
16EE-/	.	.
16AA-/JJ	.	.
16CC/LL	8aa-\L	.
16EE-/	.	.
16AA-/	8aa-\J	.
16C/JJ	.	.
=312	=312	=312
16EE-/LL	8ee-\L	.
16AA-/	.	.
16C/	8ee-\J	.
16E-/JJ	.	.
16AA-\LL	4cc\	.
16C\	.	.
16E-\	.	.
16A-\JJ	.	.
=313	=313	=313
4G\	16B-/LL	.
.	16c/	.
.	16en/	.
.	16b-/JJ	.
8En\L	16c/LL	.
.	16e/	.
8E\J	16b-/	.
.	16cc/JJ	.
=314	=314	=314
8C/L	16en\LL	.
.	16b-\	.
8C/J	16cc\	.
.	16een\JJ	.
4GG/	16b-\LL	.
.	16cc\	.
.	16ee\	.
.	16bb-\JJ	.
=315	=315	=315
16FFFn/LL	4aa-\	.
16AAA-/	.	.
16CC/	.	.
16FFn/JJ	.	.
16AAA-/LL	8ffn\L	.
16CC/	.	.
16FF/	8ff\J	.
16AA-/JJ	.	.
=316	=316	=316
16CC/LL	8cc\L	.
16FFn/	.	.
16AA-/	8cc\J	.
16C/JJ	.	.
16FF/LL	4a-/	.
16AA-/	.	.
16C/	.	.
16Fn/JJ	.	.
=317	=317	=317
4E-\	16G/LL	.
.	16c/	.
.	16e-/	.
.	16g/JJ	.
8C/L	16c/LL	.
.	16e-/	.
8C/J	16g/	.
.	16cc/JJ	.
=318	=318	=318
8GG/L	16e-/LL	.
.	16g/	.
8GG/J	16cc/	.
.	16ee-/JJ	.
4EE-/	16g\LL	.
.	16cc\	.
.	16ee-\	.
.	16gg\JJ	.
=319	=319	=319
4DD/	16r	.
.	16ccc\LL	.
.	16aa\	.
.	16ff#\JJ	.
8FF#/L	16cc\LL	.
.	16ff#\	.
8FF#/J	16cc\	.
.	16a\JJ	.
=320	=320	=320
8AAn/L	16f#/LL	.
.	16cc/	.
8AA/J	16a/	.
.	16f#/JJ	.
4D\	16c/LL	.
.	16a/	.
.	16f#/	.
.	16c/JJ	.
=321	=321	=321
4DD/	16r	.
.	16bb-\LL	.
.	16gg\	.
.	16dd\JJ	.
8GG/L	16b-\LL	.
.	16gg\	.
8GG/J	16dd\	.
.	16b-\JJ	.
=322	=322	=322
8BB-/L	16g/LL	.
.	16b-/	.
8BB-/J	16g/	.
.	16d/JJ	.
4D\	16B-/LL	.
.	16g/	.
.	16d/	.
.	16B-/JJ	.
=323	=323	=323
4DD/	16r	.
.	16gg\LL	.
.	16een\	.
.	16cc#\JJ	.
8GG/L	16g\LL	.
.	16ee\	.
8GG/J	16cc#\	.
.	16g\JJ	.
=324	=324	=324
8BB-/L	16en/LL	.
.	16g/	.
8BB-/J	16e/	.
.	16c#/JJ	.
4D\	16G/LL	.
.	16e/	.
.	16c#/	.
.	16G/JJ	.
=325	=325	=325
4DD/	16r	.
.	16aa\LL	.
.	16ff#\	.
.	16dd\JJ	.
4r	16a\LL	.
.	16ff#\	.
.	16dd\	.
.	16a\JJ	.
=326	=326	=326
2r	16f#/LL	.
.	16dd/	.
.	16a/	.
.	16f#/JJ	.
.	16d/LL	.
.	16a/	.
.	16f#/	.
.	16d/JJ	.
=327	=327	=327
4DD/	16r	.
.	16cccn\LL	.
.	16aa\	.
.	16ff#\JJ	.
8FF#/L	16cc\LL	.
.	16ff#\	.
8FF#/J	16cc\	.
.	16a\JJ	.
=328	=328	=328
8AA/L	16f#/LL	.
.	16cc/	.
8AA/J	16a/	.
.	16f#/JJ	.
4D\	16c/LL	.
.	16a/	.
.	16f#/	.
.	16c/JJ	.
=329	=329	=329
4EE-/	16r	.
.	16ccc\LL	.
.	16gg\	.
.	16ee-\JJ	.
8GG/L	16cc\LL	.
.	16ee-\	.
8GG/J	16cc\	.
.	16g\JJ	.
=330	=330	=330
8C/L	16e-/LL	.
.	16cc/	.
8C/J	16g/	.
.	16e-/JJ	.
4E-\	16c/LL	.
.	16g/	.
.	16e-/	.
.	16c/JJ	.
=331	=331	=331
4EEn/	16r	.
.	16ccc\LL	.
.	16gg\	.
.	16een\JJ	.
8GG/L	16cc\LL	.
.	16ee\	.
8GG/J	16cc\	.
.	16g\JJ	.
=332	=332	=332
8C/L	16en/LL	.
.	16g/	.
8C/J	16e/	.
.	16c/JJ	.
4En\	16G/LL	.
.	16e/	.
.	16c/	.
.	16G/JJ	.
=333	=333	=333
4FFn/	16r	.
.	16ccc\LL	.
.	16aa\	.
.	16ffn\JJ	.
8AA/L	16cc\LL	.
.	16ff\	.
8AA/J	16cc\	.
.	16a\JJ	.
=334	=334	=334
8C/L	16fn/LL	.
.	16cc/	.
8C/J	16a/	.
.	16f/JJ	.
4Fn\	16c/LL	.
.	16a/	.
.	16f/	.
.	16c/JJ	.
=335	=335	=335
4FF#/ 4AA/ 4C/ 4D/	16r	.
.	16ccc\LL	.
.	16bbn\	.
.	16aa\JJ	.
4r	16gg\LL	.
.	16ff#\	.
.	16ee\	.
.	16dd\JJ	.
=336	=336	=336
2r	16cc/LL	.
.	16b/	.
.	16a/	.
.	16g/JJ	.
.	16f#/LL	.
.	16e/	.
.	16d/	.
.	16c/JJ	.
=337	=337	=337
*^	*	*
16B/LL	2r	2r	.
16A/	.	.	.
16G/	.	.	.
16F#/JJ	.	.	.
16E/LL	.	.	.
16D/	.	.	.
16C/	.	.	.
16BB/JJ	.	.	.
=338	=338	=338	=338
2r	16AA\LL	2r	.
.	16GG\	.	.
.	16FF#\	.	.
.	16EE\JJ	.	.
.	16DD\LL	.	.
.	16CC#\	.	.
.	16DD\	.	.
.	16CC#\JJ	.	.
=339	=339	=339	=339
2r	4DD\	2r	.
.	8FF#\L	.	.
.	8FF#\J	.	.
=340	=340	=340	=340
4D/	4AA\	2r	.
8F#/L	4r	.	.
8F#/J	.	.	.
=341	=341	=341	=341
4A/	4FF#\	2r	.
4r	8AA\L	.	.
.	8AA\J	.	.
=342	=342	=342	=342
4F#/	4C\	2r	.
8A/L	4r	.	.
8A/J	.	.	.
=343	=343	=343	=343
4c/	4AA\	2r	.
4r	8C\L	.	.
.	8C\J	.	.
*v	*v	*	*
=344	=344	=344
4E-\	4A/	f
4r	8c/L	.
.	8c/J	.
=345	=345	=345
*^	*	*
4FF#/	4r	4c/ 4e-/	.
4F#/ 4A/	8C\ 8E-\L	4r	.
.	8C\ 8E-\J	.	.
=346	=346	=346	=346
4FF#/	4r	4c/ 4e-/	.
4F#/ 4A/	8C\ 8E-\L	4r	.
.	8C\ 8E-\J	.	.
*v	*v	*	*
=347	=347	=347
4GG/	4c/ 4en/	.
8C\ 8En\L	4G/	.
8C\ 8E\J	.	.
=348	=348	=348
4GG/	4B/ 4fn/	.
8D\ 8Fn\L	4G/	.
8D\ 8F\J	.	.
=349	=349	=349
4GG#/	4d/ 4fn/	.
8D\ 8Fn\L	4G#/ 4B/	.
8D\ 8F\J	.	.
=350	=350	=350
4GG#/	4d/ 4fn/	.
8D\ 8Fn\L	4G#/ 4B/	.
8D\ 8F\J	.	.
=351	=351	=351
4AA/	4d/ 4f#/	.
8D\ 8F#\L	4A/	.
8D\ 8F#\J	.	.
=352	=352	=352
4AA/	4c#/ 4g/	.
8E\ 8G\L	4A/	.
8E\ 8G\J	.	.
=353	=353	=353
4AA#/	4e/ 4g/	.
8E\ 8G\L	4A#/ 4c#/	.
8E\ 8G\J	.	.
=354	=354	=354
4AA#/	4e/ 4g/	.
8E\ 8G\L	4A#/ 4c#/	.
8E\ 8G\J	.	.
=355	=355	=355
4BB/	4e/ 4g#/	.
8E\ 8G#\L	4B/	.
8E\ 8G#\J	.	.
=356	=356	=356
4BB/	4d#/ 4a/	.
8F#\ 8A\L	4B/	.
8F#\ 8A\J	.	.
=357	=357	=357
4BB/	4e/ 4b/	>
8G#\L	4B/	.
8G#\J	.	.
=358	=358	=358
4BB/	4d#/ 4a/	.
8F#\ 8A\L	4B/	.
8F#\ 8A\J	.	.
=359	=359	=359
4BB/	4e/ 4g#/	.
8E\ 8G#\L	4B/	.
8E\ 8G#\J	.	.
=360	=360	=360
4C-/	4e-/ 4an/	.
8G-\ 8An\L	4c-/	.
8G-\ 8A\J	.	.
=361	=361	=361
4BB-/	4e-/ 4b-/	.
8E-\ 8Gn\L	4B-/	.
8E-\ 8G\J	.	.
=362	=362	=362
4BB-/	4d/ 4a-/	.
8Fn\ 8A-\L	4B-/	.
8F\ 8A-\J	.	.
=363	=363	=363
4E-\	4e-/ 4g/	p
8G\L	4B-/	.
8G\J	.	.
=364	=364	=364
4E-\	4g/ 4cc/	.
8G\L	4c/	.
8G\J	.	.
=365	=365	=365
4D\	4g\ 4dd\	.
8G\ 8An\L	4d/	.
8G\ 8A\J	.	.
=366	=366	=366
4D\	4f#/ 4cc/	.
8F#\ 8A\L	4c/	.
8F#\ 8A\J	.	.
=367	=367	=367
4G\	4g/ 4b-/	pp
8B-\L	4d/	.
8B-\J	.	.
=368	=368	=368
4E-\	4g/ 4cc/	.
8G\ 8A\L	4c/	.
8G\ 8A\J	.	.
=369	=369	=369
4D\	4g\ 4dd\	.
8G\ 8A\L	4c/	.
8G\ 8A\J	.	.
=370	=370	=370
4D\	4f#/ 4dd/	.
8F#\ 8A\L	4c/	.
8F#\ 8A\J	.	.
=371	=371	=371
8r	8Bn/ 8d/ 8g/ 8bn/	f
8GG/ 8BBn/ 8D/ 8G/	8r	.
8r	8dd\	.
8GG/ 8BB/ 8D/ 8G/	8r	.
=372	=372	=372
8r	8gg\	.
8GG/ 8BB/ 8D/ 8G/	8r	.
8r	8bb\	.
8GG/ 8BB/ 8D/ 8G/	8r	.
=373	=373	=373
*	*^	*
8r	16ccc/LL	8dd\ 8ff#\	.
.	16ddd/	.	.
8GG/ 8C/ 8D/ 8F#/	16ccc/	8r	.
.	16bb/JJ	.	.
8r	16aa/LL	8dd\ 8ff#\	.
.	16bb/	.	.
8GG/ 8C/ 8D/ 8F#/	16aa/	8r	.
.	16gg/JJ	.	.
=374	=374	=374	=374
8r	16ff#/LL	8cc\ 8dd\	.
.	16gg/	.	.
8GG/ 8C/ 8D/ 8F#/	16ff#/	8r	.
.	16ee/JJ	.	.
8r	16dd/LL	8a\	.
.	16ee/	.	.
8GG/ 8C/ 8D/ 8F#/	16dd/	8r	.
.	16cc/JJ	.	.
*	*v	*v	*
=375	=375	=375
8r	8B/ 8d/ 8g/ 8b/	.
8GG/ 8BB/ 8D/ 8G/	8r	.
8r	8d/ 8g/ 8b/ 8dd/	.
8GG/ 8BB/ 8D/ 8G/	8r	.
=376	=376	=376
8r	8g\ 8b\ 8dd\ 8gg\	.
8GG/ 8BB/ 8D/ 8G/	8r	.
8r	8b\ 8dd\ 8gg\ 8bb\	.
8GG/ 8BB/ 8D/ 8G/	8r	.
=377	=377	=377
*	*^	*
8r	16ccc/LL	8dd\ 8ff#\	.
.	16ddd/	.	.
8GG/ 8C/ 8D/ 8F#/	16ccc/	8r	.
.	16bb/JJ	.	.
8r	16aa/LL	8dd\ 8ff#\	.
.	16bb/	.	.
8GG/ 8C/ 8D/ 8F#/	16ccc/	8r	.
.	16aa/JJ	.	.
*	*v	*v	*
=378	=378	=378
8r	8g\ 8b\ 8dd\ 8gg\	.
8GG/ 8BB/ 8D/ 8G/	8r	.
8r	8B/ 8d/ 8g/	.
8GG/ 8BB/ 8D/ 8G/	8r	.
=379	=379	=379
8r	8b\ 8ee\ 8gg\ 8bb\	.
8E\ 8G\ 8B\ 8e\	8r	.
8r	8e/ 8g/ 8b/ 8ee/	.
8E\ 8G\ 8B\ 8e\	8r	.
=380	=380	=380
8r	8b\ 8ee\ 8gg\ 8bb\	.
8E\ 8G\ 8B\ 8e\	8r	.
8r	8ee\ 8gg\ 8bb\ 8eee\	.
8E\ 8G\ 8B\ 8e\	8r	.
=381	=381	=381
*	*^	*
8r	16ddd#/LL	8ff#\ 8aa\	.
.	16eee/	.	.
8BB\ 8F#\ 8A\ 8B\	16ddd#/	8r	.
.	16cccn/JJ	.	.
8r	8bb/	8ff#\ 8aa\	.
8BB\ 8F#\ 8A\ 8B\	8r	8r	.
=382	=382	=382	=382
8r	16ddd#/LL	8ff#\ 8aa\	.
.	16eee/	.	.
8BB\ 8F#\ 8A\ 8B\	16ddd#/	8r	.
.	16cccn/JJ	.	.
8r	8bb/	8ff#\ 8aa\	.
8BB\ 8F#\ 8A\ 8B\	8r	8r	.
*	*v	*v	*
=383	=383	=383
8r	8b\ 8ee\ 8gg\ 8bb\	.
8EE/ 8GG/ 8BB/ 8E/	8r	.
8r	8e/ 8g/ 8b/ 8ee/	.
8EE/ 8GG/ 8BB/ 8E/	8r	.
=384	=384	=384
8r	8b\ 8ee\ 8gg\ 8bb\	.
8EE/ 8GG/ 8BB/ 8E/	8r	.
8r	8ee\ 8gg\ 8bb\ 8eee\	.
8EE/ 8GG/ 8BB/ 8E/	8r	.
=385	=385	=385
*	*^	*
8r	16ccc#/LL	8ee\ 8gg\	.
.	16ddd/	.	.
8AA\ 8C#\ 8E\ 8G\	16ccc#/	8r	.
.	16bb/JJ	.	.
8r	16aa/LL	4r	.
.	16gg/	.	.
8AA\ 8C#\ 8E\ 8G\	16ff#/	.	.
.	16ee/JJ	.	.
*	*v	*v	*
=386	=386	=386
8r	(16dd\LL	.
.	16ee\	.
8D\ 8F#\	16dd\	.
.	16cc#\JJ	.
8r	8dd\)	.
8D\ 8F#\ 8A\ 8d\	8r	.
=387	=387	=387
16r	4B/ 4b/	.
16d\LL	.	.
16B\	.	.
16G\JJ	.	.
16D\LL	8d/ 8dd/L	.
16B\	.	.
16G\	8d/ 8dd/J	.
16D\JJ	.	.
=388	=388	=388
16BB/LL	8g\ 8gg\L	.
16G/	.	.
16D/	8g\ 8gg\J	.
16BB/JJ	.	.
16GG/LL	4b\ 4bb\	.
16D/	.	.
16BB/	.	.
16GG/JJ	.	.
=389	=389	=389
16DD/LL	16ddd\LL	.
16FF#/	16ccc\	.
16AA/	16ddd\	.
16D/JJ	16ccc\JJ	.
16FF#/LL	8aa\	.
16AA/	.	.
16D/	8r	.
16F#/JJ	.	.
=390	=390	=390
16AA\LL	16ddd\LL	.
16D\	16ccc\	.
16F#\	16ddd\	.
16A\JJ	16ccc\JJ	.
16D\LL	8aa\	.
16F#\	.	.
16A\	8r	.
16c\JJ	.	.
=391	=391	=391
16r	4B/ 4b/	.
16d\LL	.	.
16B\	.	.
16G\JJ	.	.
16D\LL	8d/ 8dd/L	.
16B\	.	.
16G\	8d/ 8dd/J	.
16D\JJ	.	.
=392	=392	=392
16BB/LL	8g\ 8gg\L	.
16G/	.	.
16D/	8g\ 8gg\J	.
16BB/JJ	.	.
16GG/LL	4b\ 4bb\	.
16D/	.	.
16BB/	.	.
16GG/JJ	.	.
=393	=393	=393
16DD/LL	16ddd\LL	.
16FF#/	16ccc\	.
16AA/	16ddd\	.
16D/JJ	16ccc\JJ	.
16DD/LL	8aa\L	.
16FF#/	.	.
16AA/	16aa\L	.
16D/JJ	16bb\JJ	.
=394	=394	=394
4GG/	4gg\	.
4r	16g/LL	p
.	16a/	.
.	16b/	.
.	16cc/JJ	.
=395	=395	=395
2r	16dd\LL	.
.	16cc\	.
.	16b\	.
.	16a\JJ	.
.	16g/LL	.
.	16a/	.
.	16b/	.
.	16cc/JJ	.
=396	=396	=396
2r	8dd\L	.
.	8dd\J	.
.	4gg\	.
=397	=397	=397
16A\LL	4gg\	.
16G\	.	.
16F#\	.	.
16E\JJ	.	.
16D\LL	8ff#\	.
16E\	.	.
16F#\	8r	.
16G\JJ	.	.
=398	=398	=398
8A\L	8r	.
8A\J	8ffn\L	.
4d\	8ff\	.
.	8ff\J	.
=399	=399	=399
4d\	16ee\LL	.
.	16dd\	.
.	16cc\	.
.	16b\JJ	.
8c\	16a\LL	.
.	16b\	.
8r	16cc\	.
.	16dd\JJ	.
=400	=400	=400
8r	8ee\L	.
8c\L	8ee\J	.
8c\	4aa\	.
8c\J	.	.
=401	=401	=401
16B\LL	4aa\	.
16A\	.	.
16G\	.	.
16F#\JJ	.	.
16E\LL	8gg\	.
16F#\	.	.
16G\	8r	.
16A\JJ	.	.
=402	=402	=402
8B\L	8r	.
8B\J	8gg\L	.
4e\	8gg\	.
.	8gg\J	.
=403	=403	=403
4e\	16ff#\LL	.
.	16ee\	.
.	16dd#\	.
.	16cc#\JJ	.
8d#\	16b\LL	.
.	16cc#\	.
8r	16dd#\	.
.	16ee\JJ	.
*clefG2	*	*
=404	=404	=404
2d#/ 2f#/ 2b/	8ff#\L	.
.	8ff#\J	.
.	4bb\	.
=405	=405	=405
*	*^	*
2dn/ 2e/ 2b/	8gg#/L	2ee\	.
.	8gg#/J	.	.
.	4eee/	.	.
*	*v	*v	*
=406	=406	=406
2c#/ 2gn/ 2a/	8ee\L	.
.	8ee\J	.
.	4aa\	.
=407	=407	=407
*	*^	*
2cn/ 2d/ 2a/	8ff#/L	2dd\	.
.	8ff#/J	.	.
.	4ddd/	.	.
*	*v	*v	*
=408	=408	=408
2B/ 2d/ 2g/	8dd\L	.
.	8dd\J	.
.	4gg\	.
*clefF4	*	*
=409	=409	=409
*	*^	*
2C\ 2G\ 2c\	8ee/L	2cc\	f
.	8ee/J	.	.
.	4ccc/	.	.
=410	=410	=410	=410
2D\ 2G\ 2B\	8dd/L	2b\	.
.	8dd/J	.	.
.	4bb/	.	.
=411	=411	=411	=411
2E\ 2G\ 2c\	8cc/L	2a\	.
.	8cc/J	.	.
.	4aa/	.	.
=412	=412	=412	=412
2E-\ 2G\ 2c#\	8cc#/L	2a\	.
.	8cc#/J	.	.
.	4aa/	.	.
*	*v	*v	*
=413	=413	=413
8D\ 8G\ 8B\ 8d\	8b/ 8dd/ 8bb/L	.
8r	8d/	p
4r	8g/	.
.	8g/J	.
=414	=414	=414
2r	8b\L	.
.	8b\J	.
.	4dd\	.
=415	=415	=415
4D\	(16dd\LL	.
.	16ccn\	.
.	16dd\	.
.	16cc\JJ)	.
8F#\L	8a/	.
8F#\J	8r	.
=416	=416	=416
8A\L	16dd\LL	.
.	16cc\	.
8A\J	16dd\	.
.	16cc\JJ	.
8c\L	8a/	.
8c\J	8r	.
=417	=417	=417
16c\LL	4g/	.
16B\	.	.
16c\	.	.
16B\JJ	.	.
4G\	8b\L	.
.	8b\J	.
=418	=418	=418
16c\LL	8dd\L	.
16B\	.	.
16c\	8dd\J	.
16B\JJ	.	.
4G\	8gg\L	.
.	8gg\J	.
*clefG2	*	*
=419	=419	=419
4d/	16gg\LL	.
.	16ff#\	.
.	16gg\	.
.	16ff#\JJ	.
8f#/L	4dd\	.
8f#/J	.	.
=420	=420	=420
8a/L	16gg\LL	.
.	16ff#\	.
8a/J	16gg\	.
.	16ff#\JJ	.
8cc\L	4dd\	.
8cc\J	.	.
=421	=421	=421
16cc\LL	4dd\	<
16b\	.	.
16cc\	.	.
16b\JJ	.	.
4g/	8dd\ 8gg\L	.
.	8dd\ 8gg\J	.
=422	=422	=422
16cc\LL	8gg\ 8bb\L	.
16b\	.	.
16cc\	8gg\ 8bb\J	.
16b\JJ	.	.
4g/	4bb\ 4ddd\	.
=423	=423	=423
4d/	16ddd\LL	.
.	16ccc\	.
.	16ddd\	.
.	16ccc\JJ	.
*	*^	*
8f#/L	16ee-\LL	4ff#/ 4aa/	>
.	16dd\	.	.
8f#/J	16ee-\	.	.
.	16dd\JJ	.	.
=424	=424	=424	=424
8a/L	16ddd/LL	4r	.
.	16ccc/	.	.
8a/J	16ddd/	.	.
.	16ccc/JJ	.	.
4cc\	4ff#/ 4aa/	16ee-\LL	.
.	.	16dd\	.
.	.	16ee-\	.
.	.	16dd\JJ	.
=425	=425	=425	=425
*^	*	*	*
4r	2G\	4gg/ 4bb/	16een\LL	p
.	.	.	16dd\	.
.	.	.	16ee\	>
.	.	.	16dd\JJ	.
16f#/LL	.	4ryy	4r	.
16g/	.	.	.	.
16f#/	.	.	.	.
16g/JJ	.	.	.	.
=426	=426	=426	=426	=426
4r	2G\	4aa/ 4ccc/	16ee-\LL	.
.	.	.	16dd\	.
.	.	.	16ee-\	.
.	.	.	16dd\JJ	.
16g/LL	.	4ryy	4r	.
16f#/	.	.	.	.
16g/	.	.	.	.
16f#/JJ	.	.	.	.
*v	*v	*	*	*
*clefF4	*	*	*
=427	=427	=427	=427
*^	*	*	*
4r	2GG\	4g/ 4b/	16en\LL	.
.	.	.	16d\	.
.	.	.	16e\	.
.	.	.	16d\JJ	.
*	*	*v	*v	*
16F#/LL	.	4r	.
16G/	.	.	.
16F#/	.	.	.
16G/JJ	.	.	.
=428	=428	=428	=428
*	*	*^	*
4r	2GG\	4a/ 4cc/	16e-\LL	.
.	.	.	16d\	.
.	.	.	16e-\	.
.	.	.	16d\JJ	.
*	*	*v	*v	*
16G/LL	.	4r	.
16F#/	.	.	.
16G/	.	.	.
16F#/JJ	.	.	.
*	*	*clefF4	*clefF4
=429	=429	=429	=429
*	*	*^	*
4r	2GGG\	4G/ 4B/	16En\LL	.
.	.	.	16D\	.
.	.	.	16E\	.
.	.	.	16D\JJ	.
16FF#/LL	.	4ryy	4r	.
16GG/	.	.	.	.
16FF#/	.	.	.	.
16GG/JJ	.	.	.	.
=430	=430	=430	=430	=430
4r	2GGG\	4A/ 4c/	16E-\LL	.
.	.	.	16D\	.
.	.	.	16E-\	.
.	.	.	16D\JJ	.
16GG/LL	.	4ryy	4r	.
16FF#/	.	.	.	.
16GG/	.	.	.	.
16FF#/JJ	.	.	.	.
=431	=431	=431	=431	=431
4r	2GGG\	4G/ 4B/	16En\LL	.
.	.	.	16D\	.
.	.	.	16E\	.
.	.	.	16D\JJ	.
16FF#/LL	.	4ryy	4r	.
16GG/	.	.	.	.
16FF#/	.	.	.	.
16GG/JJ	.	.	.	.
=432	=432	=432	=432	=432
4r	2GGG\	4A/ 4c/	16E-\LL	.
.	.	.	16D\	.
.	.	.	16E-\	.
.	.	.	16D\JJ	.
16FF#/LL	.	4ryy	4r	.
16GG/	.	.	.	.
16FF#/	.	.	.	.
16GG/JJ	.	.	.	.
=433	=433	=433	=433	=433
4r	2GGG\	4G/ 4B/	16En\LL	pp
.	.	.	16D\	.
.	.	.	16E\	.
.	.	.	16D\JJ	.
16FF#/LL	.	4ryy	4r	.
16GG/	.	.	.	.
16FF#/	.	.	.	.
16GG/JJ	.	.	.	.
*	*	*v	*v	*
*	*	*clefG2	*clefG2
=434	=434	=434	=434
4r	2GGG\	16f#/LL	.
.	.	16g/	.
.	.	16f#/	.
.	.	16g/JJ	.
16FF#/LL	.	4r	.
16GG/	.	.	.
16FF#/	.	.	.
16GG/JJ	.	.	.
*	*	*clefF4	*clefF4
=435	=435	=435	=435
*	*	*^	*
4r	2GGG\	4G/ 4B/	16E\LL	.
.	.	.	16D\	.
.	.	.	16E\	.
.	.	.	16D\JJ	.
16FF#/LL	.	4ryy	4r	.
16GG/	.	.	.	.
16FF#/	.	.	.	.
16GG/JJ	.	.	.	.
*	*	*v	*v	*
*	*	*clefG2	*clefG2
=436	=436	=436	=436
4r	2GGG\	16cc#\LL	.
.	.	16dd\	.
.	.	16cc#\	.
.	.	16dd\JJ	.
16FF#/LL	.	4r	.
16GG/	.	.	.
16FF#/	.	.	.
16GG/JJ	.	.	.
*	*	*clefF4	*clefF4
=437	=437	=437	=437
*	*	*^	*
4r	2GGG\	4G/ 4B/	16E\LL	.
.	.	.	16D\	.
.	.	.	16E\	<
.	.	.	16D\JJ	.
16FF#/LL	.	4ryy	4r	.
16GG/	.	.	.	.
16FF#/	.	.	.	.
16GG/JJ	.	.	.	.
*	*	*v	*v	*
*	*	*clefG2	*clefG2
=438	=438	=438	=438
4r	2GGG\	16ff#\LL	.
.	.	16gg\	.
.	.	16ff#\	.
.	.	16gg\JJ	.
16FF#/LL	.	4r	.
16GG/	.	.	.
16FF#/	.	.	.
16GG/JJ	.	.	.
*v	*v	*	*
=439	=439	=439
4GGG/	2r	.
4r	.	.
=440	=440	=440
4GG/ 4BB/ 4D/ 4G/	4g\ 4b\ 4dd\ 4gg\	ff
4r	4r	.
=441	=441	=441
4GGG/ 4BBB/ 4DD/ 4GG/	4G/ 4B/ 4d/ 4g/	.
4r	4r	.
==	==	==
*-	*-	*-
!!!ENC: Craig Stuart Sapp
!!!END: 2004/11/29/
